; generated by PrusaSlicer 2.8.0+win64 on 2024-07-04 at 17:53:35 UTC

; 

; external perimeters extrusion width = 0.42mm
; perimeters extrusion width = 0.44mm
; infill extrusion width = 0.44mm
; solid infill extrusion width = 0.44mm
; top infill extrusion width = 0.40mm
; support material extrusion width = 0.36mm
; first layer extrusion width = 0.42mm

; external perimeters extrusion width = 0.42mm
; perimeters extrusion width = 0.44mm
; infill extrusion width = 0.44mm
; solid infill extrusion width = 0.44mm
; top infill extrusion width = 0.40mm
; support material extrusion width = 0.36mm
; first layer extrusion width = 0.42mm

M201 X500 Y500 Z100 E5000 ; sets maximum accelerations, mm/sec^2
M203 X500 Y500 Z10 E60 ; sets maximum feedrates, mm / sec
M204 S500 T1000 ; sets acceleration (S) and retract acceleration (R), mm/sec^2
M205 X8.00 Y8.00 Z0.40 E5.00 ; sets the jerk limits, mm/sec
M205 S0 T0 ; sets the minimum extruding and travel feed rate, mm/sec

; printing object lid.stl id:1 copy 0
; stop printing object lid.stl id:1 copy 0
; printing object box.stl id:0 copy 0
; stop printing object box.stl id:0 copy 0

;TYPE:Custom
G90 ; use absolute coordinates
M83 ; extruder relative mode
M104 S150 ; set temporary nozzle temp to prevent oozing during homing
M140 S90 ; set final bed temp
G4 S30 ; allow partial nozzle warmup
G28 ; home all axis
G1 Z50 F240
G1 X2.0 Y10 F3000
M104 S232 ; set final nozzle temp
M190 S90 ; wait for bed temp to stabilize
M109 S232 ; wait for nozzle temp to stabilize
G1 Z0.28 F240
G92 E0
G1 X2.0 Y140 E10 F1500 ; prime the nozzle
G1 X2.3 Y140 F5000
G92 E0
G1 X2.3 Y10 E10 F1200 ; prime the nozzle
G92 E0
G21 ; set units to millimeters
G90 ; use absolute coordinates
M83 ; use relative distances for extrusion
; Filament gcode
M107
;LAYER_CHANGE
;Z:0.3
;HEIGHT:0.3
G1 E-5.5 F2700
G1 Z.3 F6000
G1 X35.503 Y76.121
G1 Z.3
G1 E5.5 F2400
M204 S500
;TYPE:Skirt/Brim
;WIDTH:0.42
G1 F900
G1 X36.635 Y75.64 E.05455
G1 X68.268 Y66.366 E1.46213
G1 X69.638 Y66.122 E.06172
G1 X70.94 Y66.122 E.05775
G1 X183.305 Y76.146 E5.00372
G1 X184.286 Y76.342 E.04437
G1 X188.461 Y77.665 E.19426
G1 X189.569 Y78.187 E.05433
G1 X190.719 Y78.93 E.06073
G1 X191.899 Y80.029 E.07152
G1 X194.719 Y83.898 E.21236
G1 X195.426 Y85.577 E.0808
G1 X195.775 Y87.43 E.08363
G1 X196.252 Y92.73 E.23603
G1 X196.219 Y139.82 E2.08867
G1 X196.104 Y140.793 E.04346
G1 X194.439 Y147.561 E.30914
G1 X193.787 Y149.001 E.07011
G1 X192.998 Y150.157 E.06208
G1 X191.633 Y151.648 E.08966
G1 X190.914 Y152.242 E.04137
G1 X187.936 Y154.136 E.15654
G1 X186.394 Y154.748 E.07358
G1 X185.142 Y154.979 E.05647
G1 X180.976 Y155.431 E.18587
G1 X70.572 Y164.366 E4.91296
G1 X69.638 Y164.344 E.04144
G1 X68.236 Y164.091 E.06319
G1 X37.63 Y154.909 E1.4173
G1 X36.211 Y154.397 E.06691
G1 X34.839 Y153.604 E.07029
G1 X33.48 Y152.437 E.07945
G1 X30.475 Y149.378 E.1902
G1 X29.87 Y148.614 E.04323
G1 X29.214 Y147.578 E.05439
G1 X28.656 Y146.301 E.06181
G1 X28.356 Y145.175 E.05169
G1 X28.201 Y143.987 E.05314
G1 X28.384 Y85.336 E2.60147
G1 X28.583 Y84.174 E.05229
G1 X28.88 Y83.211 E.0447
G1 X29.388 Y82.106 E.05394
G1 X30.016 Y81.112 E.05215
G1 X30.682 Y80.287 E.04703
G1 X33.143 Y77.87 E.153
G1 X34.321 Y76.852 E.06906
G1 X35.452 Y76.153 E.05897
G1 X35.452 Y76.153 F6000
G1 X35.637 Y76.452
G1 F900
G1 X35.642 Y76.449 E.00026
G1 X36.774 Y75.968 E.05455
G1 X68.368 Y66.707 E1.46031
G1 X69.66 Y66.477 E.05821
G1 X70.918 Y66.477 E.0558
G1 X183.274 Y76.5 E5.00332
G1 X184.178 Y76.681 E.04089
G1 X188.354 Y78.004 E.1943
G1 X189.376 Y78.485 E.0501
G1 X190.526 Y79.228 E.06073
G1 X191.615 Y80.243 E.06603
G1 X194.425 Y84.098 E.21159
G1 X195.078 Y85.647 E.07456
G1 X195.421 Y87.464 E.08202
G1 X195.896 Y92.73 E.23452
G1 X195.863 Y139.816 E2.08849
G1 X195.757 Y140.714 E.04011
G1 X194.095 Y147.472 E.30868
G1 X193.493 Y148.8 E.06467
G1 X192.219 Y150.547 E.0959
G1 X191.38 Y151.398 E.05301
G1 X190.716 Y151.947 E.03821
G1 X187.748 Y153.834 E.156
G1 X186.324 Y154.399 E.06795
G1 X185.104 Y154.625 E.05503
G1 X180.947 Y155.077 E.18547
G1 X70.55 Y164.011 E4.91265
G1 X69.66 Y163.989 E.03949
G1 X68.338 Y163.75 E.05959
G1 X37.732 Y154.568 E1.4173
G1 X36.333 Y154.064 E.06596
G1 X35.068 Y153.332 E.06483
G1 X33.734 Y152.188 E.07795
G1 X30.729 Y149.129 E.1902
G1 X30.17 Y148.424 E.03991
G1 X29.514 Y147.388 E.05439
G1 X28.999 Y146.21 E.05702
G1 X28.699 Y145.084 E.05169
G1 X28.556 Y143.988 E.04902
G1 X28.739 Y85.351 E2.60085
G1 X28.923 Y84.279 E.04824
G1 X29.22 Y83.316 E.0447
G1 X29.688 Y82.296 E.04978
G1 X30.317 Y81.302 E.05217
G1 X30.931 Y80.541 E.04337
G1 X33.392 Y78.124 E.153
G1 X34.551 Y77.123 E.06793
G1 X35.586 Y76.483 E.05397
G1 X35.586 Y76.483 F6000
G1 X35.771 Y76.782
G1 F900
G1 X35.782 Y76.776 E.00056
G1 X36.913 Y76.295 E.05451
G1 X68.468 Y67.049 E1.45846
G1 X69.682 Y66.832 E.0547
G1 X70.896 Y66.832 E.05385
G1 X183.242 Y76.854 E5.00287
G1 X184.071 Y77.02 E.0375
G1 X188.246 Y78.343 E.19426
G1 X189.183 Y78.784 E.04593
G1 X190.332 Y79.527 E.06069
G1 X191.33 Y80.457 E.06051
G1 X194.131 Y84.298 E.21086
G1 X194.729 Y85.718 E.06834
G1 X195.067 Y87.497 E.08032
G1 X195.541 Y92.73 E.23306
G1 X195.508 Y139.812 E2.08831
G1 X195.411 Y140.635 E.03676
G1 X193.75 Y147.383 E.30824
G1 X193.199 Y148.6 E.05925
G1 X191.966 Y150.297 E.09304
G1 X190.518 Y151.651 E.08793
G1 X187.559 Y153.533 E.15554
G1 X186.255 Y154.05 E.06222
G1 X185.065 Y154.272 E.05369
G1 X180.918 Y154.723 E.18502
G1 X70.528 Y163.656 E4.91233
G1 X69.682 Y163.634 E.03754
G1 X68.441 Y163.409 E.05594
G1 X37.834 Y154.228 E1.41733
G1 X36.455 Y153.73 E.06503
G1 X35.296 Y153.059 E.0594
G1 X33.987 Y151.939 E.07641
G1 X30.982 Y148.879 E.19023
G1 X30.471 Y148.234 E.0365
G1 X29.815 Y147.198 E.05439
G1 X29.343 Y146.118 E.05228
G1 X29.043 Y144.992 E.05169
G1 X28.912 Y143.988 E.04491
G1 X29.095 Y85.366 E2.60018
G1 X29.263 Y84.383 E.04423
G1 X29.56 Y83.42 E.0447
G1 X29.989 Y82.486 E.04559
G1 X30.618 Y81.492 E.05217
G1 X31.18 Y80.795 E.03971
G1 X33.641 Y78.378 E.153
G1 X34.782 Y77.394 E.06683
G1 X35.72 Y76.814 E.04892
G1 X35.72 Y76.814 F6000
G1 X35.905 Y77.113
G1 F900
G1 X35.921 Y77.103 E.00084
G1 X37.052 Y76.622 E.05451
G1 X68.567 Y67.39 E1.45658
G1 X69.704 Y67.187 E.05123
G1 X70.874 Y67.187 E.0519
G1 X183.21 Y77.208 E5.00243
G1 X183.963 Y77.359 E.03406
G1 X188.139 Y78.682 E.1943
G1 X188.99 Y79.083 E.04173
G1 X190.139 Y79.826 E.06069
G1 X191.046 Y80.67 E.05495
G1 X193.837 Y84.498 E.21013
G1 X194.381 Y85.788 E.0621
G1 X194.713 Y87.53 E.07866
G1 X195.185 Y92.73 E.23159
G1 X195.152 Y139.808 E2.08814
G1 X195.064 Y140.556 E.03341
G1 X193.406 Y147.294 E.30778
G1 X192.905 Y148.4 E.05385
G1 X191.713 Y150.048 E.09021
G1 X190.321 Y151.355 E.08469
G1 X187.371 Y153.231 E.15506
G1 X186.186 Y153.702 E.05656
G1 X185.027 Y153.918 E.05229
G1 X180.89 Y154.368 E.18458
G1 X70.506 Y163.302 E4.91207
G1 X69.704 Y163.279 E.03559
G1 X68.543 Y163.069 E.05233
G1 X37.936 Y153.887 E1.41734
G1 X36.578 Y153.396 E.06405
G1 X35.525 Y152.787 E.05395
G1 X34.241 Y151.69 E.07491
G1 X31.236 Y148.63 E.19023
G1 X30.115 Y147.008 E.08745
G1 X29.686 Y146.027 E.04749
G1 X29.387 Y144.901 E.05167
G1 X29.268 Y143.988 E.04084
G1 X29.45 Y85.38 E2.59956
G1 X29.603 Y84.488 E.04014
G1 X29.899 Y83.525 E.04469
G1 X30.29 Y82.676 E.04146
G1 X30.918 Y81.682 E.05215
G1 X31.429 Y81.049 E.03608
G1 X33.89 Y78.631 E.15303
G1 X35.012 Y77.665 E.06567
G1 X35.854 Y77.145 E.04389
G1 X35.854 Y77.145 F6000
G1 X36.038 Y77.444
G1 F900
G1 X36.06 Y77.43 E.00116
G1 X37.191 Y76.95 E.0545
G1 X68.667 Y67.731 E1.45476
G1 X69.725 Y67.542 E.04767
G1 X70.852 Y67.542 E.04999
G1 X183.179 Y77.562 E5.00203
G1 X183.856 Y77.698 E.03063
G1 X188.031 Y79.021 E.19426
G1 X188.797 Y79.381 E.03754
G1 X189.946 Y80.124 E.06069
G1 X190.762 Y80.884 E.04946
G1 X193.543 Y84.699 E.2094
G1 X194.032 Y85.859 E.05584
G1 X194.358 Y87.563 E.07695
G1 X194.829 Y92.73 E.23013
G1 X194.797 Y139.804 E2.08796
G1 X194.717 Y140.476 E.03002
G1 X193.062 Y147.205 E.30736
G1 X192.611 Y148.2 E.04845
G1 X191.459 Y149.798 E.08738
G1 X190.123 Y151.06 E.08152
G1 X187.182 Y152.93 E.15458
G1 X186.116 Y153.353 E.05087
G1 X184.988 Y153.565 E.05091
G1 X180.861 Y154.014 E.18413
G1 X70.484 Y162.947 E4.91176
G1 X69.725 Y162.924 E.03368
G1 X68.645 Y162.728 E.04869
G1 X38.038 Y153.546 E1.41734
G1 X36.7 Y153.062 E.06311
G1 X35.753 Y152.514 E.04853
G1 X34.495 Y151.441 E.07334
G1 X31.49 Y148.381 E.19023
G1 X30.416 Y146.817 E.08415
G1 X30.03 Y145.935 E.0427
G1 X29.73 Y144.809 E.05169
G1 X29.623 Y143.989 E.03668
G1 X29.805 Y85.395 E2.59894
G1 X29.943 Y84.593 E.0361
G1 X30.239 Y83.63 E.04469
G1 X30.59 Y82.866 E.03729
G1 X31.219 Y81.872 E.05217
G1 X31.678 Y81.302 E.03246
G1 X34.14 Y78.885 E.15303
G1 X35.243 Y77.935 E.06457
G1 X35.987 Y77.475 E.0388
G1 E-3.85 F2700
;WIPE_START
G1 F4800
G1 X36.038 Y77.444 E-.03189
G1 X36.06 Y77.43 E-.01393
G1 X37.191 Y76.95 E-.65656
G1 X38.893 Y76.452 E-.94762
;WIPE_END
; printing object box.stl id:0 copy 0
G1 X40.147 Y79.848 F6000
G1 E5.5 F2400
;TYPE:Support material
G1 F900
G1 X40.886 Y80.017 E.03362
G1 X41.732 Y80.489 E.04297
G1 X42.464 Y80.41 E.03266
G1 X42.995 Y80.154 E.02615
G1 X44.526 Y80.154 E.06791
G1 X45.137 Y80.448 E.03007
G1 X45.932 Y80.064 E.03916
G1 X47.464 Y80.064 E.06795
G1 X48.167 Y80.403 E.03462
G1 X48.873 Y80.063 E.03476
G1 X50.404 Y80.063 E.06791
G1 X51.107 Y80.402 E.03462
G1 X51.813 Y80.062 E.03476
G1 X53.344 Y80.062 E.06791
G1 X54.047 Y80.4 E.0346
G1 X54.753 Y80.061 E.03474
G1 X56.284 Y80.061 E.06791
G1 X56.987 Y80.399 E.0346
G1 X57.693 Y80.059 E.03476
G1 X59.224 Y80.059 E.06791
G1 X59.752 Y80.314 E.02601
G1 X60.621 Y79.946 E.04186
G1 X62.104 Y79.984 E.0658
G1 X63.034 Y80.46 E.04634
G1 X60.607 Y85.313 E.24067
G1 X44.982 Y85.325 E.69304
G1 X43.727 Y85.473 E.05605
G1 X42.462 Y85.887 E.05904
G1 X42.304 Y86.152 E.01368
G1 X42.305 Y86.814 E.02936
G1 X42.181 Y87.331 E.02358
G1 X41.689 Y88.164 E.04291
G1 X41.225 Y88.575 E.02749
G1 X40.638 Y88.874 E.02922
G1 X40.121 Y88.999 E.02359
G1 X39.47 Y89 E.02888
G1 X39.219 Y89.134 E.01262
G1 X38.806 Y90.282 E.05411
G1 X38.634 Y91.633 E.06041
G1 X38.626 Y138.696 E2.08747
G1 X38.728 Y139.792 E.04882
G1 X39.016 Y140.86 E.04906
G1 X39.198 Y141.31 E.02153
G1 X39.44 Y141.459 E.01261
G1 X40.463 Y141.537 E.04551
G1 X40.953 Y141.728 E.02333
G1 X41.47 Y142.082 E.02779
G1 X41.881 Y142.547 E.02753
G1 X42.176 Y143.122 E.02866
G1 X42.302 Y143.628 E.02313
G1 X42.305 Y144.309 E.03021
G1 X42.452 Y144.565 E.01309
G1 X43.847 Y145.019 E.06507
G1 X45.149 Y145.144 E.05802
G1 X60.607 Y145.153 E.68564
G1 X62.573 Y149.084 E.19495
G1 X62.046 Y149.744 E.03746
G1 X60.666 Y150.408 E.06793
G1 X59.135 Y150.408 E.06791
G1 X58.431 Y150.069 E.03466
G1 X57.726 Y150.408 E.0347
G1 X56.195 Y150.408 E.06791
G1 X55.491 Y150.069 E.03466
G1 X54.786 Y150.409 E.03472
G1 X53.255 Y150.409 E.06791
G1 X52.551 Y150.069 E.03468
G1 X51.846 Y150.409 E.03472
G1 X50.315 Y150.409 E.06791
G1 X49.611 Y150.07 E.03466
G1 X48.906 Y150.409 E.0347
G1 X47.375 Y150.409 E.06791
G1 X46.671 Y150.07 E.03466
G1 X45.966 Y150.409 E.0347
G1 X44.435 Y150.409 E.06791
G1 X43.099 Y149.766 E.06576
G1 X41.998 Y149.963 E.04961
G1 X41.233 Y150.365 E.03833
G1 X40.089 Y150.595 E.05176
G1 X38.951 Y150.502 E.05064
G1 X37.794 Y150.078 E.05466
G1 X36.762 Y149.214 E.0597
G1 X36.189 Y148.255 E.04955
G1 X35.923 Y147.452 E.03752
G1 X34.615 Y146.881 E.0633
G1 X33.757 Y146.154 E.04988
G1 X33.101 Y145.118 E.05439
G1 X32.801 Y143.991 E.05173
G1 X32.802 Y142.988 E.04449
G1 X33.103 Y141.865 E.05157
G1 X33.645 Y141.009 E.04494
G1 X33.33 Y139.628 E.06283
G1 X33.64 Y138.269 E.06183
G1 X33.279 Y136.688 E.07193
G1 X33.615 Y135.218 E.06688
G1 X33.279 Y133.748 E.06688
G1 X33.615 Y132.278 E.06688
G1 X33.279 Y130.808 E.06688
G1 X33.614 Y129.338 E.06687
G1 X33.279 Y127.868 E.06687
G1 X33.614 Y126.398 E.06687
G1 X33.279 Y124.928 E.06687
G1 X33.614 Y123.458 E.06687
G1 X33.279 Y121.988 E.06687
G1 X33.614 Y120.518 E.06687
G1 X33.278 Y119.048 E.06688
G1 X33.614 Y117.578 E.06688
G1 X33.278 Y116.108 E.06688
G1 X33.614 Y114.638 E.06688
G1 X33.278 Y113.168 E.06688
G1 X33.614 Y111.698 E.06688
G1 X33.278 Y110.228 E.06688
G1 X33.614 Y108.758 E.06688
G1 X33.278 Y107.288 E.06688
G1 X33.613 Y105.818 E.06687
G1 X33.278 Y104.348 E.06687
G1 X33.613 Y102.878 E.06687
G1 X33.278 Y101.408 E.06687
G1 X33.613 Y99.938 E.06687
G1 X33.278 Y98.468 E.06687
G1 X33.613 Y96.998 E.06687
G1 X33.277 Y95.528 E.06688
G1 X33.613 Y94.058 E.06688
G1 X33.277 Y92.588 E.06688
G1 X33.618 Y91.095 E.06793
G1 X33.831 Y90.829 E.01511
G1 X33.537 Y89.555 E.05799
G1 X33.739 Y88.643 E.04143
G1 X33.217 Y87.751 E.04584
G1 X32.932 Y86.688 E.04881
G1 X32.98 Y85.527 E.05154
G1 X33.277 Y84.564 E.0447
G1 X33.905 Y83.569 E.05219
G1 X34.844 Y82.773 E.0546
G1 X35.653 Y82.432 E.03894
G1 X35.742 Y82.143 E.01341
G1 X36.366 Y81.152 E.05194
G1 X37.303 Y80.355 E.05456
G1 X38.434 Y79.874 E.05451
G1 X39.591 Y79.76 E.05157
G1 X40.094 Y79.84 E.02259
G1 E-3.85 F2700
;WIPE_START
G1 F4800
G1 X39.591 Y79.76 E-.27217
G1 X38.434 Y79.874 E-.62127
G1 X37.303 Y80.355 E-.65676
G1 X37.161 Y80.476 E-.0998
;WIPE_END
G1 X62.386 Y81.397 F6000
G1 E5.5 F2400
G1 F900
G1 X62.386 Y80.488 E.04032
G1 X61.991 Y80.301 E.01938
G1 X61.991 Y81.83 E.06782
G1 X61.596 Y82.62 E.03918
G1 X61.596 Y80.291 E.1033
G1 X61.201 Y80.281 E.01753
G1 X61.201 Y83.41 E.13879
G1 X60.806 Y84.201 E.03922
G1 X60.806 Y80.271 E.17431
G1 X60.411 Y80.383 E.01821
G1 X60.411 Y84.991 E.20439
G1 X60.015 Y84.995 E.01757
G1 X60.015 Y80.55 E.19716
G1 X59.743 Y80.665 E.0131
G1 X59.62 Y80.605 E.00607
G1 X59.62 Y84.996 E.19476
G1 X59.225 Y84.998 E.01752
G1 X59.225 Y80.415 E.20328
G1 X58.83 Y80.379 E.01759
G1 X58.83 Y84.999 E.20492
G1 X58.435 Y85 E.01752
G1 X58.435 Y80.379 E.20496
G1 X58.04 Y80.379 E.01752
G1 X58.04 Y85.001 E.20501
G1 X57.645 Y85.002 E.01752
G1 X57.645 Y80.438 E.20244
G1 X57.249 Y80.628 E.01948
G1 X57.249 Y85.004 E.1941
G1 X56.854 Y85.005 E.01752
G1 X56.854 Y80.691 E.19135
G1 X56.459 Y80.5 E.01946
G1 X56.459 Y85.006 E.19986
G1 X56.064 Y85.007 E.01752
G1 X56.064 Y80.381 E.20519
G1 X55.669 Y80.381 E.01752
G1 X55.669 Y85.009 E.20527
G1 X55.274 Y85.01 E.01752
G1 X55.274 Y80.381 E.20532
G1 X54.879 Y80.381 E.01752
G1 X54.879 Y85.011 E.20536
G1 X54.484 Y85.012 E.01752
G1 X54.484 Y80.545 E.19813
G1 X54.088 Y80.736 E.0195
G1 X54.088 Y85.013 E.18971
G1 X53.693 Y85.014 E.01752
G1 X53.693 Y80.585 E.19645
G1 X53.298 Y80.395 E.01944
G1 X53.298 Y85.014 E.20487
G1 X52.903 Y85.014 E.01752
G1 X52.903 Y80.382 E.20545
G1 X52.508 Y80.382 E.01752
G1 X52.508 Y85.014 E.20545
G1 X52.113 Y85.014 E.01752
G1 X52.113 Y80.382 E.20545
G1 X51.886 Y80.382 E.01007
G1 X51.718 Y80.463 E.00827
G1 X51.718 Y85.014 E.20186
G1 X51.323 Y85.014 E.01752
G1 X51.323 Y80.653 E.19343
G1 X51.107 Y80.757 E.01063
G1 X50.927 Y80.671 E.00885
G1 X50.927 Y85.014 E.19263
G1 X50.532 Y85.014 E.01752
G1 X50.532 Y80.48 E.2011
G1 X50.137 Y80.383 E.01804
G1 X50.137 Y85.014 E.20541
G1 X49.742 Y85.014 E.01752
G1 X49.742 Y80.383 E.20541
G1 X49.347 Y80.383 E.01752
G1 X49.347 Y85.014 E.20541
G1 X48.952 Y85.014 E.01752
G1 X48.946 Y80.383 E.20541
G1 X48.557 Y80.571 E.01916
G1 X48.557 Y85.014 E.19707
G1 X48.161 Y85.014 E.01756
G1 X48.161 Y80.756 E.18886
G1 X47.766 Y80.565 E.01946
G1 X47.766 Y85.014 E.19733
G1 X47.371 Y85.014 E.01752
G1 X47.371 Y80.385 E.20532
G1 X46.976 Y80.385 E.01752
G1 X46.976 Y85.014 E.20532
G1 X46.581 Y85.014 E.01752
G1 X46.581 Y80.385 E.20532
G1 X46.186 Y80.385 E.01752
G1 X46.186 Y85.014 E.20532
G1 X45.791 Y85.014 E.01752
G1 X45.791 Y80.488 E.20075
G1 X45.396 Y80.679 E.01946
G1 X45.396 Y85.014 E.19228
G1 X45 Y85.005 E.01757
G1 X45 Y80.738 E.18926
G1 X44.605 Y80.548 E.01944
G1 X44.605 Y85.027 E.19867
G1 X44.21 Y85.068 E.01761
G1 X44.21 Y80.474 E.20377
G1 X43.815 Y80.474 E.01752
G1 X43.815 Y85.133 E.20665
G1 X43.42 Y85.227 E.01801
G1 X43.42 Y80.474 E.21082
G1 X43.068 Y80.474 E.01561
G1 X43.025 Y85.332 E.21548
G1 X42.63 Y85.478 E.01868
G1 X42.63 Y80.685 E.21259
G1 X42.234 Y80.746 E.01777
G1 X42.234 Y85.644 E.21725
G1 X41.975 Y86.08 E.02249
G1 X41.987 Y86.772 E.0307
G1 X41.839 Y87.324 E.02535
G1 X41.839 Y80.798 E.28946
G1 X41.669 Y80.82 E.0076
G1 X41.444 Y80.695 E.01142
G1 X41.444 Y87.956 E.32206
G1 X41.049 Y88.306 E.02341
G1 X41.049 Y80.475 E.34734
G1 X40.654 Y80.293 E.01929
