;FLAVOR:Marlin
;TIME:43973
;Filament used: 30.842m
;Layer height: 0.2
;MINX:9.496
;MINY:15.966
;MINZ:0.2
;MAXX:220.369
;MAXY:225.203
;MAXZ:40
;TARGET_MACHINE.NAME:Creality Ender-3
;Generated with Cura_SteamEngine 5.7.1
M140 S70
M105
M190 S70
M104 S240
M105
M109 S240
M82 ;absolute extrusion mode
; Ender 3 Custom Start G-code
G92 E0 ; Reset Extruder
G28 ; Home all axes
G1 Z2.0 F3000 ; Move Z Axis up little to prevent scratching of Heat Bed
G1 X0.1 Y20 Z0.3 F5000.0 ; Move to start position
G1 X0.1 Y200.0 Z0.3 F1500.0 E15 ; Draw the first line
G1 X0.4 Y200.0 Z0.3 F5000.0 ; Move to side a little
G1 X0.4 Y20 Z0.3 F1500.0 E30 ; Draw the second line
G92 E0 ; Reset Extruder
G1 Z2.0 F3000 ; Move Z Axis up little to prevent scratching of Heat Bed
G1 X5 Y20 Z0.3 F5000.0 ; Move over to prevent blob squish
G92 E0
G92 E0
G1 F2700 E-5
;LAYER_COUNT:200
;LAYER:0
M107
G0 F6000 X24.757 Y25.561 Z0.2
;TYPE:SKIRT
G1 F2700 E0
G1 F900 X25.541 Y24.87 E0.03476
G1 X26.269 Y24.336 E0.06479
G1 X27.163 Y23.796 E0.09953
G1 X28.039 Y23.369 E0.13194
G1 X28.949 Y23.023 E0.16432
G1 X29.887 Y22.757 E0.19675
G1 X30.774 Y22.587 E0.22679
G1 X32.104 Y22.468 E0.2712
G1 X32.711 Y22.455 E0.29139
G1 X108.87 Y22.455 E2.82445
G1 X111.454 Y22.418 E2.9104
G1 X114.019 Y22.309 E2.99579
G1 X116.498 Y22.133 E3.07845
G1 X118.999 Y21.886 E3.16204
G1 X121.507 Y21.565 E3.24614
G1 X123.99 Y21.175 E3.32974
G1 X126.43 Y20.721 E3.41228
G1 X128.925 Y20.184 E3.49717
G1 X131.371 Y19.585 E3.58093
G1 X133.793 Y18.92 E3.66446
G1 X136.184 Y18.187 E3.74764
G1 X138.582 Y17.378 E3.83181
G1 X139.909 Y16.888 E3.87886
G1 X140.775 Y16.584 E3.90939
G1 X141.708 Y16.305 E3.94178
G1 X142.593 Y16.121 E3.97184
G1 X144.074 Y15.979 E4.02133
G1 X144.681 Y15.966 E4.04152
G1 X208.673 Y15.966 E6.1699
G1 X209.553 Y15.979 E6.19918
G1 X210.525 Y16.038 E6.23157
G1 X211.488 Y16.184 E6.26396
G1 X212.435 Y16.415 E6.29638
G1 X213.323 Y16.715 E6.32756
G1 X214.215 Y17.105 E6.35994
G1 X215.098 Y17.592 E6.39348
G1 X215.849 Y18.094 E6.42352
G1 X216.664 Y18.752 E6.45836
G1 X217.362 Y19.43 E6.49072
G1 X217.998 Y20.167 E6.5231
G1 X218.568 Y20.957 E6.5555
G1 X219.03 Y21.733 E6.58554
G1 X219.484 Y22.675 E6.62032
G1 X219.813 Y23.553 E6.65151
G1 X220.082 Y24.525 E6.68505
G1 X220.259 Y25.491 E6.71771
G1 X220.354 Y26.621 E6.75543
G1 X220.369 Y27.296 E6.77789
G1 X220.368 Y130.366 E10.20601
G1 X220.357 Y131.128 E10.23136
G1 X220.3 Y132.101 E10.26377
G1 X220.155 Y133.064 E10.29616
G1 X219.926 Y134.01 E10.32854
G1 X219.615 Y134.934 E10.36096
G1 X219.223 Y135.825 E10.39334
G1 X218.755 Y136.677 E10.42567
G1 X218.212 Y137.487 E10.45811
G1 X217.646 Y138.191 E10.48815
G1 X216.922 Y138.943 E10.52287
G1 X216.186 Y139.582 E10.55529
G1 X215.455 Y140.113 E10.58534
G1 X214.559 Y140.649 E10.62006
G1 X213.681 Y141.071 E10.65246
G1 X212.77 Y141.413 E10.68483
G1 X211.831 Y141.674 E10.71724
G1 X210.876 Y141.85 E10.74954
G1 X209.993 Y141.937 E10.77905
G1 X208.735 Y142.01 E10.82097
G1 X206.093 Y142.201 E10.90907
G1 X203.619 Y142.449 E10.99177
G1 X201.101 Y142.773 E11.07621
G1 X198.621 Y143.165 E11.15971
G1 X196.158 Y143.624 E11.24305
G1 X193.708 Y144.153 E11.32641
G1 X191.264 Y144.757 E11.41014
G1 X188.78 Y145.441 E11.49584
G1 X186.435 Y146.162 E11.57744
G1 X184.025 Y146.979 E11.66207
G1 X181.64 Y147.861 E11.74665
G1 X179.364 Y148.778 E11.82826
G1 X177.016 Y149.801 E11.91345
G1 X174.714 Y150.883 E11.99805
G1 X172.517 Y151.993 E12.07992
G1 X170.271 Y153.208 E12.16485
G1 X168.086 Y154.471 E12.24879
G1 X165.975 Y155.773 E12.33128
G1 X163.859 Y157.162 E12.41547
G1 X161.803 Y158.598 E12.49888
G1 X159.781 Y160.094 E12.58254
G1 X157.799 Y161.651 E12.66637
G1 X155.842 Y163.278 E12.75101
G1 X153.968 Y164.93 E12.83411
G1 X152.11 Y166.662 E12.91859
G1 X150.357 Y168.392 E13.0005
G1 X148.577 Y170.252 E13.08613
G1 X146.899 Y172.106 E13.1693
G1 X145.25 Y174.035 E13.25371
G1 X143.701 Y175.953 E13.33571
G1 X142.163 Y177.976 E13.42023
G1 X140.707 Y180.007 E13.50335
G1 X139.283 Y182.116 E13.58799
G1 X137.945 Y184.225 E13.67106
G1 X136.657 Y186.384 E13.75467
G1 X135.135 Y189.107 E13.85843
G1 X134.62 Y189.934 E13.89083
G1 X134.035 Y190.711 E13.92318
G1 X133.382 Y191.435 E13.95561
G1 X132.669 Y192.097 E13.98797
G1 X131.907 Y192.689 E14.02006
G1 X131.33 Y193.071 E14.04308
G1 X130.796 Y193.394 E14.06384
G1 X78.715 Y223.465 E16.06407
G1 X78.082 Y223.819 E16.08819
G1 X77.212 Y224.254 E16.12054
G1 X76.373 Y224.588 E16.15057
G1 X75.371 Y224.886 E16.18534
G1 X74.487 Y225.066 E16.21535
G1 X73.448 Y225.183 E16.25012
G1 X72.474 Y225.203 E16.28253
G1 X71.502 Y225.137 E16.31493
G1 X70.541 Y224.985 E16.34729
G1 X69.598 Y224.75 E16.37961
G1 X68.743 Y224.458 E16.40966
G1 X67.787 Y224.031 E16.44449
G1 X66.937 Y223.555 E16.47689
G1 X66.134 Y223.006 E16.50924
G1 X65.38 Y222.387 E16.54169
G1 X64.686 Y221.706 E16.57403
G1 X64.098 Y221.021 E16.60406
G1 X63.386 Y220.003 E16.64537
G1 X63.053 Y219.453 E16.66676
G1 X11.234 Y129.702 E20.11371
G1 X10.879 Y129.067 E20.13791
G1 X10.444 Y128.196 E20.17029
G1 X10.089 Y127.29 E20.20265
G1 X9.813 Y126.356 E20.23505
G1 X9.622 Y125.401 E20.26744
G1 X9.516 Y124.434 E20.29979
G1 X9.496 Y123.459 E20.33223
G1 X9.563 Y122.487 E20.36464
G1 X9.715 Y121.526 E20.397
G1 X9.938 Y120.622 E20.42796
G1 X10.118 Y120.064 E20.44746
G1 X10.35 Y119.407 E20.47064
G1 X11.181 Y116.937 E20.55732
G1 X11.903 Y114.577 E20.6394
G1 X12.573 Y112.143 E20.72337
G1 X13.181 Y109.653 E20.80862
G1 X13.708 Y107.21 E20.89174
G1 X14.168 Y104.734 E20.9755
G1 X14.556 Y102.25 E21.05912
G1 X14.875 Y99.759 E21.14265
G1 X15.122 Y97.268 E21.22591
G1 X15.298 Y94.753 E21.30976
G1 X15.405 Y92.222 E21.39402
G1 X15.441 Y89.702 E21.47784
G1 X15.405 Y87.2 E21.56107
G1 X15.295 Y84.647 E21.64606
G1 X15.12 Y82.177 E21.72842
G1 X14.871 Y79.67 E21.81221
G1 X14.548 Y77.164 E21.89625
G1 X14.161 Y74.687 E21.97964
G1 X13.691 Y72.167 E22.0649
G1 X13.173 Y69.761 E22.14675
G1 X12.573 Y67.317 E22.23046
G1 X12.418 Y66.746 E22.25014
G1 X12.254 Y66.082 E22.27288
G1 X12.034 Y64.888 E22.31326
G1 X11.982 Y64.471 E22.32724
G1 X11.909 Y63.571 E22.35727
G1 X11.905 Y62.596 E22.3897
G1 X11.998 Y61.249 E22.43461
G1 X12.237 Y59.933 E22.4791
G1 X12.344 Y59.49 E22.49426
G1 X12.746 Y58.187 E22.53961
G1 X12.928 Y57.709 E22.55662
G1 X13.311 Y56.819 E22.58885
G1 X13.794 Y55.825 E22.6256
G1 X14.888 Y53.496 E22.71119
G1 X15.899 Y51.171 E22.79551
G1 X16.837 Y48.843 E22.87899
G1 X17.703 Y46.496 E22.9622
G1 X18.52 Y44.076 E23.04715
G1 X19.241 Y41.721 E23.12906
G1 X19.923 Y39.255 E23.21416
G1 X20.519 Y36.824 E23.29741
G1 X21.054 Y34.341 E23.38189
G1 X21.603 Y31.406 E23.4812
G1 X21.827 Y30.459 E23.51357
G1 X22.122 Y29.568 E23.54479
G1 X22.522 Y28.641 E23.57837
G1 X22.987 Y27.787 E23.61071
G1 X23.505 Y27.004 E23.64194
G1 X24.134 Y26.215 E23.6755
G1 X24.757 Y25.561 E23.70554
G0 F6000 X25.047 Y25.837
G1 F900 X25.778 Y25.193 E23.73794
G1 X26.506 Y24.659 E23.76797
G1 X27.339 Y24.155 E23.80035
G1 X28.182 Y23.743 E23.83156
G1 X29.059 Y23.408 E23.86278
G1 X29.962 Y23.15 E23.89402
G1 X30.849 Y22.98 E23.92406
G1 X32.113 Y22.868 E23.96626
G1 X32.72 Y22.855 E23.98646
G1 X108.876 Y22.855 E26.51942
G1 X111.471 Y22.818 E26.60574
G1 X114.036 Y22.709 E26.69113
G1 X116.529 Y22.532 E26.77425
G1 X119.05 Y22.283 E26.85851
G1 X121.558 Y21.962 E26.9426
G1 X124.052 Y21.57 E27.02657
G1 X126.516 Y21.112 E27.10993
G1 X129.02 Y20.573 E27.19512
G1 X131.466 Y19.974 E27.27888
G1 X133.899 Y19.305 E27.36281
G1 X136.312 Y18.566 E27.44674
G1 X138.71 Y17.757 E27.53092
G1 X140.042 Y17.265 E27.57814
G1 X140.89 Y16.967 E27.60804
G1 X141.789 Y16.697 E27.63926
G1 X142.674 Y16.513 E27.66932
G1 X144.083 Y16.379 E27.7164
G1 X144.69 Y16.366 E27.73659
G1 X208.667 Y16.366 E29.86448
G1 X209.529 Y16.378 E29.89315
G1 X210.466 Y16.434 E29.92437
G1 X211.394 Y16.573 E29.95558
G1 X212.307 Y16.794 E29.98682
G1 X213.163 Y17.082 E30.01686
G1 X214.055 Y17.472 E30.04924
G1 X214.876 Y17.925 E30.08043
G1 X215.627 Y18.427 E30.11047
G1 X216.386 Y19.039 E30.1429
G1 X217.06 Y19.692 E30.17412
G1 X217.674 Y20.401 E30.20531
G1 X218.224 Y21.162 E30.23654
G1 X218.686 Y21.938 E30.26658
G1 X219.109 Y22.815 E30.29896
G1 X219.438 Y23.693 E30.33015
G1 X219.689 Y24.598 E30.36138
G1 X219.86 Y25.525 E30.39274
G1 X219.955 Y26.655 E30.43045
G1 X219.969 Y27.296 E30.45178
G1 X219.968 Y130.361 E33.87973
G1 X219.958 Y131.105 E33.90448
G1 X219.904 Y132.042 E33.9357
G1 X219.766 Y132.971 E33.96694
G1 X219.547 Y133.883 E33.99813
G1 X219.249 Y134.773 E34.02935
G1 X218.872 Y135.633 E34.06058
G1 X218.422 Y136.455 E34.09175
G1 X217.9 Y137.236 E34.12299
G1 X217.334 Y137.94 E34.15304
G1 X216.659 Y138.641 E34.1854
G1 X215.951 Y139.258 E34.21664
G1 X215.22 Y139.789 E34.24669
G1 X214.385 Y140.289 E34.27906
G1 X213.54 Y140.697 E34.31027
G1 X212.662 Y141.028 E34.34148
G1 X211.758 Y141.281 E34.3727
G1 X210.836 Y141.452 E34.40389
G1 X209.97 Y141.538 E34.43284
G1 X208.706 Y141.611 E34.47495
G1 X206.06 Y141.802 E34.56318
G1 X203.568 Y142.052 E34.64648
G1 X201.05 Y142.376 E34.73092
G1 X198.559 Y142.77 E34.8148
G1 X196.074 Y143.233 E34.89888
G1 X193.624 Y143.762 E34.98224
G1 X191.158 Y144.371 E35.06672
G1 X188.674 Y145.056 E35.15243
G1 X186.307 Y145.783 E35.23478
G1 X183.897 Y146.6 E35.31942
G1 X181.501 Y147.486 E35.40439
G1 X179.204 Y148.411 E35.48675
G1 X176.856 Y149.434 E35.57193
G1 X174.544 Y150.521 E35.6569
G1 X172.327 Y151.641 E35.73952
G1 X170.081 Y152.856 E35.82445
G1 X167.886 Y154.125 E35.90878
G1 X165.765 Y155.433 E35.99166
G1 X163.63 Y156.834 E36.07659
G1 X161.565 Y158.276 E36.16036
G1 X159.543 Y159.772 E36.24402
G1 X157.543 Y161.343 E36.32861
G1 X155.586 Y162.97 E36.41326
G1 X153.703 Y164.63 E36.49675
G1 X151.837 Y166.369 E36.58158
G1 X150.076 Y168.107 E36.66388
G1 X148.288 Y169.975 E36.74988
G1 X146.602 Y171.838 E36.83345
G1 X144.946 Y173.775 E36.91821
G1 X143.39 Y175.702 E37.00059
G1 X141.838 Y177.743 E37.08587
G1 X140.375 Y179.783 E37.16937
G1 X138.951 Y181.892 E37.254
G1 X137.601 Y184.02 E37.33782
G1 X136.313 Y186.179 E37.42144
G1 X134.795 Y188.896 E37.52495
G1 X134.3 Y189.694 E37.55619
G1 X133.737 Y190.444 E37.58738
G1 X133.11 Y191.142 E37.61859
G1 X132.423 Y191.781 E37.64979
G1 X131.686 Y192.355 E37.68086
G1 X131.109 Y192.737 E37.70388
G1 X130.596 Y193.048 E37.72383
G1 X78.52 Y223.116 E39.72387
G1 X77.903 Y223.461 E39.74738
G1 X77.064 Y223.882 E39.7786
G1 X76.225 Y224.216 E39.80863
G1 X75.291 Y224.494 E39.84105
G1 X74.407 Y224.674 E39.87105
G1 X73.439 Y224.783 E39.90345
G1 X72.5 Y224.804 E39.93469
G1 X71.564 Y224.742 E39.96589
G1 X70.637 Y224.597 E39.9971
G1 X69.727 Y224.371 E40.02828
G1 X68.872 Y224.079 E40.05833
G1 X67.982 Y223.682 E40.09075
G1 X67.162 Y223.224 E40.12199
G1 X66.387 Y222.696 E40.15318
G1 X65.66 Y222.101 E40.18442
G1 X64.99 Y221.445 E40.21561
G1 X64.402 Y220.76 E40.24563
G1 X63.714 Y219.774 E40.28562
G1 X63.399 Y219.253 E40.30587
G1 X11.583 Y129.507 E43.75263
G1 X11.237 Y128.888 E43.77622
G1 X10.816 Y128.049 E43.80744
G1 X10.472 Y127.176 E43.83865
G1 X10.205 Y126.277 E43.86984
G1 X10.02 Y125.357 E43.90105
G1 X9.916 Y124.425 E43.93224
G1 X9.895 Y123.486 E43.96348
G1 X9.958 Y122.549 E43.99472
G1 X10.103 Y121.622 E44.02592
G1 X10.326 Y120.718 E44.05689
G1 X10.495 Y120.197 E44.07511
G1 X10.727 Y119.54 E44.09828
G1 X11.56 Y117.065 E44.18514
G1 X12.289 Y114.683 E44.26799
G1 X12.959 Y112.249 E44.35196
G1 X13.57 Y109.748 E44.43759
G1 X14.099 Y107.294 E44.52108
G1 X14.561 Y104.807 E44.60522
G1 X14.953 Y102.301 E44.68958
G1 X15.272 Y99.81 E44.77311
G1 X15.52 Y97.307 E44.85677
G1 X15.698 Y94.77 E44.94135
G1 X15.805 Y92.239 E45.02561
G1 X15.841 Y89.708 E45.1098
G1 X15.805 Y87.194 E45.19343
G1 X15.695 Y84.63 E45.27878
G1 X15.519 Y82.149 E45.36151
G1 X15.269 Y79.63 E45.4457
G1 X14.945 Y77.113 E45.53011
G1 X14.556 Y74.625 E45.61387
G1 X14.084 Y72.094 E45.6995
G1 X13.564 Y69.677 E45.78173
G1 X12.959 Y67.212 E45.86615
G1 X12.806 Y66.65 E45.88552
G1 X12.647 Y66.009 E45.90749
G1 X12.431 Y64.838 E45.94709
G1 X12.381 Y64.439 E45.96046
G1 X12.308 Y63.539 E45.9905
G1 X12.304 Y62.624 E46.02093
G1 X12.397 Y61.277 E46.06584
G1 X12.626 Y60.027 E46.10811
G1 X12.733 Y59.584 E46.12326
G1 X13.12 Y58.329 E46.16694
G1 X13.295 Y57.867 E46.18338
G1 X13.671 Y56.994 E46.21499
G1 X14.154 Y56 E46.25175
G1 X15.255 Y53.656 E46.33788
G1 X16.266 Y51.331 E46.42221
G1 X17.208 Y48.992 E46.50607
G1 X18.078 Y46.635 E46.58964
G1 X18.899 Y44.204 E46.67498
G1 X19.627 Y41.827 E46.75766
G1 X20.308 Y39.361 E46.84275
G1 X20.91 Y36.908 E46.92676
G1 X21.445 Y34.425 E47.01124
G1 X21.992 Y31.498 E47.11028
G1 X22.207 Y30.585 E47.14148
G1 X22.502 Y29.694 E47.17269
G1 X22.874 Y28.832 E47.20392
G1 X23.321 Y28.008 E47.2351
G1 X23.839 Y27.225 E47.26632
G1 X24.424 Y26.491 E47.29754
G1 X25.047 Y25.837 E47.32758
G0 F6000 X25.337 Y26.113
G1 F900 X26.015 Y25.516 E47.35763
G1 X26.743 Y24.982 E47.38766
G1 X27.515 Y24.514 E47.41769
G1 X28.326 Y24.116 E47.44773
G1 X29.169 Y23.792 E47.47777
G1 X30.037 Y23.543 E47.50781
G1 X30.924 Y23.373 E47.53784
G1 X32.122 Y23.268 E47.57784
G1 X32.729 Y23.255 E47.59804
G1 X108.882 Y23.255 E50.13089
G1 X111.488 Y23.218 E50.21758
G1 X114.053 Y23.109 E50.30297
G1 X116.56 Y22.931 E50.38656
G1 X119.101 Y22.68 E50.47149
G1 X121.609 Y22.359 E50.55558
G1 X124.114 Y21.965 E50.63992
G1 X126.601 Y21.503 E50.72406
G1 X129.115 Y20.962 E50.80959
G1 X131.561 Y20.363 E50.89335
G1 X134.005 Y19.69 E50.97766
G1 X136.44 Y18.945 E51.06235
G1 X138.838 Y18.136 E51.14653
G1 X140.175 Y17.642 E51.19394
G1 X141.006 Y17.35 E51.22323
G1 X141.87 Y17.089 E51.25325
G1 X142.755 Y16.905 E51.28332
G1 X144.092 Y16.779 E51.32798
G1 X144.699 Y16.766 E51.34817
G1 X208.662 Y16.766 E53.47559
G1 X209.506 Y16.777 E53.50367
G1 X210.408 Y16.83 E53.53372
G1 X211.301 Y16.962 E53.56374
G1 X212.179 Y17.173 E53.59378
G1 X213.035 Y17.461 E53.62382
G1 X213.862 Y17.823 E53.65384
G1 X214.654 Y18.258 E53.6839
G1 X215.405 Y18.76 E53.71394
G1 X216.108 Y19.327 E53.74398
G1 X216.758 Y19.954 E53.77402
G1 X217.35 Y20.636 E53.80405
G1 X217.88 Y21.367 E53.83409
G1 X218.342 Y22.143 E53.86412
G1 X218.735 Y22.956 E53.89416
G1 X219.053 Y23.801 E53.92419
G1 X219.296 Y24.671 E53.95423
G1 X219.461 Y25.559 E53.98427
G1 X219.556 Y26.689 E54.02199
G1 X219.569 Y27.296 E54.04218
G1 X219.568 Y130.356 E57.46997
G1 X219.559 Y131.082 E57.49412
G1 X219.508 Y131.984 E57.52417
G1 X219.377 Y132.878 E57.55422
G1 X219.168 Y133.756 E57.58424
G1 X218.882 Y134.613 E57.61429
G1 X218.521 Y135.441 E57.64433
G1 X218.089 Y136.233 E57.67434
G1 X217.588 Y136.985 E57.70439
G1 X217.022 Y137.689 E57.73444
G1 X216.396 Y138.34 E57.76447
G1 X215.716 Y138.934 E57.7945
G1 X214.985 Y139.465 E57.82456
G1 X214.21 Y139.929 E57.8546
G1 X213.398 Y140.323 E57.88462
G1 X212.553 Y140.643 E57.91467
G1 X211.684 Y140.888 E57.9447
G1 X210.796 Y141.054 E57.97475
G1 X209.947 Y141.139 E58.00313
G1 X208.677 Y141.212 E58.04544
G1 X206.027 Y141.403 E58.1338
G1 X203.517 Y141.655 E58.21771
G1 X200.999 Y141.979 E58.30215
G1 X198.496 Y142.375 E58.38643
G1 X195.99 Y142.842 E58.47122
G1 X193.54 Y143.371 E58.55458
G1 X191.052 Y143.985 E58.63981
G1 X188.568 Y144.671 E58.72553
G1 X186.179 Y145.404 E58.80864
G1 X183.769 Y146.221 E58.89328
G1 X181.362 Y147.111 E58.97863
G1 X179.044 Y148.044 E59.06174
G1 X176.696 Y149.067 E59.14693
G1 X174.374 Y150.159 E59.23227
G1 X172.137 Y151.289 E59.31563
G1 X169.891 Y152.504 E59.40056
G1 X167.686 Y153.779 E59.48528
G1 X165.555 Y155.093 E59.56854
G1 X163.401 Y156.506 E59.65422
G1 X161.327 Y157.954 E59.73836
G1 X159.305 Y159.45 E59.82201
G1 X157.287 Y161.035 E59.90736
G1 X155.33 Y162.663 E59.99203
G1 X153.43 Y164.337 E60.07625
G1 X151.564 Y166.076 E60.16109
G1 X149.795 Y167.822 E60.24376
G1 X147.999 Y169.698 E60.33014
G1 X146.305 Y171.57 E60.41411
G1 X144.642 Y173.515 E60.49922
