;FLAVOR:Marlin
;TIME:43906
;Filament used: 30.7899m
;Layer height: 0.2
;MINX:0
;MINY:79.478
;MINZ:0.2
;MAXX:235
;MAXY:225.5
;MAXZ:40
;TARGET_MACHINE.NAME:Creality Ender-3
;Generated with Cura_SteamEngine 5.7.1
M140 S70
M105
M190 S70
M104 S240
M105
M109 S240
M82 ;absolute extrusion mode
; Ender 3 Custom Start G-code
G92 E0 ; Reset Extruder
G28 ; Home all axes
G1 Z2.0 F3000 ; Move Z Axis up little to prevent scratching of Heat Bed
G1 X0.1 Y20 Z0.3 F5000.0 ; Move to start position
G1 X0.1 Y200.0 Z0.3 F1500.0 E15 ; Draw the first line
G1 X0.4 Y200.0 Z0.3 F5000.0 ; Move to side a little
G1 X0.4 Y20 Z0.3 F1500.0 E30 ; Draw the second line
G92 E0 ; Reset Extruder
G1 Z2.0 F3000 ; Move Z Axis up little to prevent scratching of Heat Bed
G1 X5 Y20 Z0.3 F5000.0 ; Move over to prevent blob squish
G92 E0
G92 E0
G1 F2700 E-5
;LAYER_COUNT:200
;LAYER:0
M107
G0 F6000 X0.00 Y113.864 Z0.2
;TYPE:SKIRT
G1 F2700 E0
G1 F900 X0.033 Y113.729 E0.00462
G1 X0.321 Y112.873 E0.03466
G1 X0.74 Y111.917 E0.06938
G1 X1.211 Y111.064 E0.10179
G1 X1.756 Y110.258 E0.13415
G1 X2.37 Y109.501 E0.16657
G1 X3.048 Y108.802 E0.19895
G1 X3.786 Y108.166 E0.23136
G1 X4.576 Y107.599 E0.2637
G1 X5.382 Y107.119 E0.2949
G1 X6.227 Y106.711 E0.32611
G1 X7.365 Y106.291 E0.36646
G1 X9.975 Y105.489 E0.45727
G1 X12.36 Y104.681 E0.54103
G1 X14.7 Y103.815 E0.62401
G1 X17.023 Y102.878 E0.70733
G1 X19.364 Y101.857 E0.79227
G1 X21.623 Y100.796 E0.87528
G1 X23.87 Y99.661 E0.95901
G1 X26.09 Y98.459 E1.04297
G1 X29.384 Y96.526 E1.17
G1 X30.333 Y95.94 E1.2071
G1 X31.186 Y95.468 E1.23953
G1 X32.043 Y95.087 E1.27072
G1 X32.997 Y94.761 E1.30425
G1 X33.943 Y94.53 E1.33664
G1 X34.905 Y94.383 E1.36901
G1 X35.878 Y94.321 E1.40143
G1 X36.85 Y94.346 E1.43377
G1 X37.748 Y94.446 E1.46383
G1 X39.003 Y94.715 E1.50652
G1 X41.891 Y95.472 E1.60582
G1 X44.422 Y96.052 E1.69218
G1 X46.854 Y96.538 E1.77467
G1 X49.337 Y96.962 E1.85845
G1 X51.829 Y97.315 E1.94216
G1 X54.318 Y97.595 E2.02547
G1 X56.859 Y97.812 E2.11029
G1 X59.341 Y97.949 E2.19297
G1 X61.872 Y98.019 E2.27718
G1 X64.359 Y98.017 E2.3599
G1 X66.929 Y97.943 E2.44541
G1 X69.389 Y97.801 E2.52737
G1 X71.921 Y97.586 E2.61188
G1 X74.442 Y97.296 E2.69629
G1 X76.905 Y96.944 E2.77904
G1 X79.381 Y96.518 E2.8626
G1 X81.856 Y96.02 E2.94657
G1 X84.307 Y95.455 E3.03023
G1 X86.748 Y94.818 E3.11413
G1 X89.146 Y94.118 E3.19722
G1 X91.586 Y93.332 E3.28248
G1 X93.919 Y92.508 E3.36478
G1 X96.293 Y91.59 E3.44943
G1 X98.602 Y90.623 E3.53269
G1 X100.876 Y89.594 E3.61571
G1 X103.193 Y88.465 E3.70144
G1 X105.405 Y87.309 E3.78445
G1 X107.594 Y86.084 E3.86788
G1 X109.728 Y84.811 E3.95053
G1 X111.907 Y83.427 E4.03638
G1 X113.964 Y82.036 E4.11897
G1 X114.777 Y81.465 E4.15202
G1 X115.599 Y80.945 E4.18437
G1 X116.465 Y80.498 E4.21678
G1 X117.366 Y80.13 E4.24915
G1 X118.297 Y79.843 E4.28156
G1 X119.249 Y79.64 E4.31393
G1 X120.145 Y79.527 E4.34397
G1 X120.737 Y79.493 E4.36369
G1 X121.376 Y79.478 E4.38495
G1 X218.368 Y79.478 E7.61092
G1 X219.248 Y79.491 E7.64019
G1 X220.22 Y79.55 E7.67258
G1 X221.183 Y79.696 E7.70497
G1 X222.13 Y79.927 E7.73739
G1 X223.018 Y80.227 E7.76857
G1 X223.91 Y80.617 E7.80095
G1 X224.793 Y81.104 E7.83449
G1 X225.544 Y81.606 E7.86453
G1 X226.359 Y82.264 E7.89937
G1 X227.057 Y82.942 E7.93174
G1 X227.693 Y83.679 E7.96412
G1 X228.263 Y84.469 E7.99652
G1 X228.725 Y85.245 E8.02655
G1 X229.179 Y86.187 E8.06133
G1 X229.508 Y87.065 E8.09252
G1 X229.775 Y88.02 E8.1255
G1 X229.87 Y88.483 E8.14122
G1 X230.415 Y91.419 E8.24054
G1 X230.96 Y93.94 E8.32633
G1 X231.544 Y96.305 E8.40735
G1 X232.235 Y98.811 E8.49381
G1 X232.956 Y101.156 E8.57541
G1 X233.762 Y103.542 E8.65917
G1 X234.65 Y105.943 E8.74432
G1 X235 Y106.812 E8.77548
G0 F6000 X235 Y107.882
G1 F900 X234.279 Y106.092 E8.83966
G1 X233.387 Y103.681 E8.92516
G1 X232.577 Y101.284 E9.00932
G1 X231.85 Y98.919 E9.09161
G1 X231.158 Y96.411 E9.17814
G1 X230.569 Y94.025 E9.25988
G1 X230.024 Y91.504 E9.34567
G1 X229.477 Y88.556 E9.44539
G1 X229.383 Y88.101 E9.46085
G1 X229.133 Y87.205 E9.49179
G1 X228.804 Y86.327 E9.52297
G1 X228.381 Y85.45 E9.55536
G1 X227.919 Y84.674 E9.58539
G1 X227.369 Y83.913 E9.61662
G1 X226.755 Y83.204 E9.64782
G1 X226.081 Y82.551 E9.67903
G1 X225.322 Y81.939 E9.71146
G1 X224.571 Y81.437 E9.7415
G1 X223.75 Y80.984 E9.77269
G1 X222.858 Y80.594 E9.80507
G1 X222.002 Y80.306 E9.83511
G1 X221.089 Y80.085 E9.86635
G1 X220.161 Y79.946 E9.89756
G1 X219.224 Y79.89 E9.92878
G1 X218.362 Y79.878 E9.95746
G1 X121.385 Y79.878 E13.18293
G1 X120.746 Y79.893 E13.20418
G1 X120.195 Y79.924 E13.22254
G1 X119.299 Y80.037 E13.25258
G1 X118.381 Y80.234 E13.2838
G1 X117.485 Y80.512 E13.31501
G1 X116.617 Y80.868 E13.34621
G1 X115.783 Y81.3 E13.37745
G1 X114.991 Y81.803 E13.40866
G1 X114.188 Y82.367 E13.44129
G1 X112.121 Y83.765 E13.52429
G1 X109.933 Y85.155 E13.61051
G1 X107.799 Y86.428 E13.69315
G1 X105.59 Y87.664 E13.77734
G1 X103.368 Y88.825 E13.86073
G1 X101.051 Y89.954 E13.94645
G1 X98.757 Y90.992 E14.0302
G1 X96.448 Y91.959 E14.11346
G1 X94.06 Y92.882 E14.19861
G1 X91.709 Y93.713 E14.28155
G1 X89.269 Y94.499 E14.36681
G1 X86.856 Y95.203 E14.45041
G1 X84.397 Y95.845 E14.53494
G1 X81.946 Y96.41 E14.6186
G1 X79.456 Y96.911 E14.70308
G1 X76.962 Y97.34 E14.78724
G1 X74.499 Y97.692 E14.87
G1 X71.955 Y97.984 E14.95517
G1 X69.423 Y98.2 E15.03969
G1 X66.941 Y98.343 E15.12237
G1 X64.371 Y98.417 E15.20789
G1 X61.861 Y98.419 E15.29137
G1 X59.33 Y98.349 E15.37559
G1 X56.825 Y98.21 E15.45903
G1 X54.284 Y97.994 E15.54385
G1 X51.773 Y97.711 E15.62789
G1 X49.281 Y97.358 E15.71161
G1 X46.78 Y96.931 E15.79599
G1 X44.333 Y96.442 E15.87899
G1 X41.798 Y95.861 E15.96549
G1 X38.902 Y95.102 E16.06506
G1 X37.704 Y94.844 E16.10582
G1 X36.806 Y94.744 E16.13588
G1 X35.868 Y94.721 E16.16708
G1 X34.931 Y94.782 E16.19831
G1 X34.004 Y94.925 E16.22951
G1 X33.093 Y95.149 E16.26071
G1 X32.205 Y95.453 E16.29193
G1 X31.348 Y95.834 E16.32313
G1 X30.527 Y96.29 E16.35436
G1 X29.586 Y96.871 E16.39114
G1 X26.28 Y98.811 E16.51864
G1 X24.06 Y100.013 E16.6026
G1 X21.793 Y101.158 E16.68707
G1 X19.524 Y102.224 E16.77045
G1 X17.184 Y103.245 E16.85537
G1 X14.85 Y104.186 E16.93907
G1 X12.488 Y105.06 E17.02284
G1 X10.103 Y105.868 E17.10659
G1 X7.482 Y106.673 E17.19778
G1 X6.401 Y107.071 E17.2361
G1 X5.587 Y107.463 E17.26615
G1 X4.781 Y107.943 E17.29735
G1 X4.02 Y108.491 E17.32854
G1 X3.31 Y109.105 E17.35976
G1 X2.657 Y109.779 E17.39097
G1 X2.067 Y110.509 E17.42219
G1 X1.543 Y111.287 E17.45339
G1 X1.09 Y112.11 E17.48464
G1 X0.7 Y113.001 E17.51698
G1 X0.412 Y113.857 E17.54702
G1 X0.191 Y114.77 E17.57827
G1 X0.051 Y115.698 E17.60948
G1 X0.00 Y116.552 E17.63794
G1 F2700 E12.63794
G0 F6000 X0.00 Y221.622
G1 F2700 E17.63794
G1 F900 X0.094 Y222.753 E17.67568
G1 X0.266 Y223.682 E17.70711
G1 X0.518 Y224.586 E17.73832
G1 X0.863 Y225.5 E17.77081
G0 F6000 X1.309 Y225.5
G1 F900 X1.223 Y225.322 E17.77739
G1 X0.903 Y224.478 E17.80741
G1 X0.659 Y223.608 E17.83746
G1 X0.493 Y222.72 E17.86751
G1 X0.396 Y221.565 E17.90606
G1 X0.383 Y220.956 E17.92632
G1 X0.384 Y117.348 E21.37234
G1 X0.394 Y116.658 E21.39529
G1 X0.447 Y115.757 E21.42531
G1 X0.58 Y114.863 E21.45537
G1 X0.791 Y113.985 E21.4854
G1 X1.079 Y113.129 E21.51544
G1 X1.441 Y112.302 E21.54547
G1 X1.875 Y111.51 E21.57551
G1 X2.378 Y110.76 E21.60554
G1 X2.945 Y110.057 E21.63558
G1 X3.572 Y109.407 E21.66562
G1 X4.254 Y108.815 E21.69566
G1 X4.986 Y108.286 E21.72569
G1 X5.761 Y107.823 E21.75572
G1 X6.575 Y107.431 E21.78577
G1 X7.599 Y107.055 E21.82205
G1 X10.231 Y106.247 E21.91363
G1 X12.616 Y105.439 E21.99738
G1 X15 Y104.557 E22.08192
G1 X17.345 Y103.612 E22.16601
G1 X19.684 Y102.591 E22.2509
G1 X21.963 Y101.52 E22.33465
G1 X24.25 Y100.365 E22.41987
G1 X26.47 Y99.163 E22.50383
G1 X29.788 Y97.216 E22.63179
G1 X30.722 Y96.639 E22.6683
G1 X31.511 Y96.199 E22.69835
G1 X32.335 Y95.831 E22.72836
G1 X33.189 Y95.537 E22.7584
G1 X34.066 Y95.32 E22.78845
G1 X34.958 Y95.181 E22.81848
G1 X35.859 Y95.121 E22.84851
G1 X36.762 Y95.142 E22.87855
G1 X37.66 Y95.242 E22.90861
G1 X38.801 Y95.489 E22.94744
G1 X41.705 Y96.25 E23.04728
G1 X44.244 Y96.832 E23.13392
G1 X46.706 Y97.324 E23.21743
G1 X49.225 Y97.754 E23.30242
G1 X51.717 Y98.107 E23.38613
G1 X54.25 Y98.393 E23.47092
G1 X56.791 Y98.608 E23.55573
G1 X59.319 Y98.749 E23.63995
G1 X61.85 Y98.819 E23.72416
G1 X64.383 Y98.817 E23.80841
G1 X66.953 Y98.743 E23.89392
G1 X69.457 Y98.599 E23.97734
G1 X71.989 Y98.382 E24.06187
G1 X74.556 Y98.088 E24.1478
G1 X77.019 Y97.736 E24.23055
G1 X79.531 Y97.304 E24.31533
G1 X82.036 Y96.8 E24.40032
G1 X84.487 Y96.235 E24.48397
G1 X86.964 Y95.588 E24.56912
G1 X89.392 Y94.88 E24.65324
G1 X91.832 Y94.094 E24.7385
G1 X94.201 Y93.256 E24.82208
G1 X96.592 Y92.332 E24.90734
G1 X98.911 Y91.361 E24.99096
G1 X101.226 Y90.314 E25.07546
G1 X103.543 Y89.185 E25.16119
G1 X105.775 Y88.019 E25.24495
G1 X108.004 Y86.772 E25.3299
G1 X110.147 Y85.494 E25.41288
G1 X112.336 Y84.102 E25.49916
G1 X114.412 Y82.698 E25.58252
G1 X115.206 Y82.14 E25.6148
G1 X115.968 Y81.655 E25.64484
G1 X116.769 Y81.238 E25.67488
G1 X117.604 Y80.894 E25.70491
G1 X118.466 Y80.625 E25.73495
G1 X119.349 Y80.434 E25.76499
G1 X120.245 Y80.321 E25.79503
G1 X120.755 Y80.293 E25.81202
G1 X121.394 Y80.278 E25.83328
G1 X218.357 Y80.278 E29.05828
G1 X219.201 Y80.289 E29.08636
G1 X220.103 Y80.342 E29.11641
G1 X220.996 Y80.474 E29.14643
G1 X221.874 Y80.685 E29.17647
G1 X222.73 Y80.973 E29.2065
G1 X223.557 Y81.335 E29.23653
G1 X224.349 Y81.77 E29.26658
G1 X225.1 Y82.272 E29.29663
G1 X225.803 Y82.839 E29.32667
G1 X226.453 Y83.466 E29.35671
G1 X227.045 Y84.148 E29.38674
G1 X227.575 Y84.879 E29.41677
G1 X228.037 Y85.655 E29.44681
G1 X228.43 Y86.468 E29.47685
G1 X228.748 Y87.313 E29.50688
G1 X228.991 Y88.183 E29.53692
G1 X229.084 Y88.629 E29.55207
G1 X229.633 Y91.589 E29.6522
G1 X230.178 Y94.11 E29.73799
G1 X230.772 Y96.518 E29.82048
G1 X231.465 Y99.026 E29.90702
G1 X232.198 Y101.412 E29.99004
G1 X233.012 Y103.82 E30.07458
G1 X233.908 Y106.241 E30.16044
G1 X234.843 Y108.564 E30.24373
G1 X235 Y108.924 E30.25679
G1 F2700 E25.25679
;MESH:housing_power_box.stl
G0 F6000 X219.717 Y150.131
G0 X123.086 Y154.776
G0 X122.548 Y155.71
G0 X94.246 Y203.553
;TYPE:WALL-INNER
G1 F2700 E30.25679
G1 F900 X121.745 Y155.923 E32.08604
G1 X36.442 Y106.674 E35.36214
G1 X32.242 Y113.948 E35.6415
G1 X84.501 Y197.927 E38.93131
G1 X94.246 Y203.553 E39.30557
G0 F6000 X94.392 Y204.1
G1 F900 X122.292 Y155.776 E41.16148
G1 X36.296 Y106.128 E44.46417
G1 X31.776 Y113.956 E44.76481
G1 X84.215 Y198.223 E48.06592
G1 X94.392 Y204.1 E48.45679
G0 F6000 X94.538 Y204.646
;TYPE:WALL-OUTER
G1 F900 X122.838 Y155.63 E50.33928
G1 X36.15 Y105.582 E53.66856
G1 X31.31 Y113.964 E53.99048
G1 X83.928 Y198.519 E57.30287
G1 X94.538 Y204.646 E57.71037
G0 F6000 X94.442 Y204.28
G0 X93.978 Y203.283
G0 X94.11 Y203.058
;TYPE:SKIN
G1 F900 X84.756 Y197.655 E58.06966
G1 X32.658 Y113.94 E61.34918
G1 X36.574 Y107.166 E61.60942
G1 X121.25 Y156.054 E64.86145
G1 X94.11 Y203.058 E66.6667
G0 F6000 X93.979 Y203.283
G0 X84.755 Y197.956
G0 X84.986 Y197.557
G1 F900 X84.838 Y197.409 E66.67366
G0 F6000 X84.449 Y197.65
G0 X86.093 Y198.729
G0 X86.324 Y198.33
G1 F900 X83.906 Y195.912 E66.7874
G0 F6000 X83.517 Y196.153
G0 X82.585 Y194.655
G0 X82.974 Y194.414
G1 F900 X87.664 Y199.104 E67.008
G0 F6000 X87.433 Y199.503
G0 X88.77 Y200.275
G0 X89.002 Y199.876
G1 F900 X82.041 Y192.916 E67.3354
G0 F6000 X81.653 Y193.157
G0 X80.72 Y191.659
G0 X81.109 Y191.418
G1 F900 X90.341 Y200.65 E67.76965
G0 F6000 X90.11 Y201.049
G0 X91.45 Y201.823
G0 X91.681 Y201.424
G1 F900 X80.177 Y189.92 E68.31076
G0 F6000 X79.788 Y190.161
G0 X78.857 Y188.664
G0 X79.245 Y188.423
G1 F900 X93.019 Y202.196 E68.95862
G0 F6000 X92.787 Y202.595
G0 X94.182 Y203.318
G0 X94.488 Y202.931
G0 X94.088 Y202.699
G1 F900 X78.313 Y186.925 E69.70061
G0 F6000 X77.924 Y187.166
G0 X76.993 Y185.668
G0 X77.382 Y185.427
G1 F900 X94.295 Y202.341 E70.49617
G0 F6000 X94.501 Y201.982
G1 F900 X76.449 Y183.929 E71.3453
G0 F6000 X76.06 Y184.17
G0 X75.128 Y182.672
G0 X75.517 Y182.431
G1 F900 X94.708 Y201.623 E72.24801
G0 F6000 X94.916 Y201.265
G1 F900 X74.585 Y180.934 E73.20432
G0 F6000 X74.196 Y181.175
G0 X73.264 Y179.677
G0 X73.653 Y179.436
G1 F900 X95.123 Y200.906 E74.2142
G0 F6000 X95.33 Y200.548
G1 F900 X72.721 Y177.938 E75.27768
G0 F6000 X72.332 Y178.179
G0 X71.4 Y176.682
G0 X71.789 Y176.441
G1 F900 X95.537 Y200.189 E76.39471
G0 F6000 X95.744 Y199.83
G1 F900 X70.856 Y174.942 E77.56537
G0 F6000 X70.467 Y175.183
G0 X69.536 Y173.686
G0 X69.924 Y173.445
G1 F900 X95.951 Y199.471 E78.78958
G0 F6000 X96.158 Y199.113
G1 F900 X68.992 Y171.947 E80.06738
G0 F6000 X68.604 Y172.188
G0 X67.672 Y170.69
G0 X68.06 Y170.45
G1 F900 X96.365 Y198.754 E81.39874
G0 F6000 X96.572 Y198.396
G1 F900 X67.128 Y168.952 E82.78369
G0 F6000 X66.74 Y169.193
G0 X65.808 Y167.695
G0 X66.197 Y167.454
G1 F900 X96.78 Y198.037 E84.22223
G0 F6000 X96.986 Y197.678
G1 F900 X65.264 Y165.956 E85.71433
G0 F6000 X64.875 Y166.197
G0 X63.943 Y164.699
G0 X64.332 Y164.458
G1 F900 X97.193 Y197.32 E87.26003
G0 F6000 X97.4 Y196.961
G1 F900 X63.4 Y162.961 E88.85929
G0 F6000 X63.012 Y163.202
G0 X62.079 Y161.704
G0 X62.468 Y161.463
G1 F900 X97.608 Y196.603 E90.51217
G0 F6000 X97.815 Y196.244
G1 F900 X61.536 Y159.965 E92.21862
G0 F6000 X61.147 Y160.206
G0 X60.216 Y158.709
G0 X60.604 Y158.468
G1 F900 X98.022 Y195.886 E93.97865
G0 F6000 X98.228 Y195.526
G1 F900 X59.672 Y156.97 E95.79221
G0 F6000 X59.283 Y157.211
G0 X58.351 Y155.712
G0 X58.739 Y155.472
G1 F900 X98.436 Y195.168 E97.65941
G0 F6000 X98.643 Y194.809
G1 F900 X57.807 Y153.974 E99.58018
G0 F6000 X57.419 Y154.214
G0 X56.487 Y152.717
G0 X56.875 Y152.476
G1 F900 X98.85 Y194.451 E101.55456
G0 F6000 X99.057 Y194.092
G1 F900 X55.943 Y150.979 E103.58249
G0 F6000 X55.555 Y151.219
G0 X54.623 Y149.721
G0 X55.011 Y149.481
G1 F900 X99.264 Y193.734 E105.66401
G0 F6000 X99.471 Y193.375
G1 F900 X54.08 Y147.983 E107.79909
G0 F6000 X53.691 Y148.224
G0 X52.759 Y146.726
G0 X53.147 Y146.485
G1 F900 X99.678 Y193.016 E109.98776
G0 F6000 X99.885 Y192.658
G1 F900 X52.215 Y144.987 E112.23004
G0 F6000 X51.826 Y145.228
G0 X50.895 Y143.731
G0 X51.283 Y143.49
G1 F900 X100.092 Y192.299 E114.52586
G0 F6000 X100.3 Y191.941
G1 F900 X50.351 Y141.992 E116.87531
G0 F6000 X49.963 Y142.233
G0 X49.03 Y140.735
G0 X49.419 Y140.494
G1 F900 X100.507 Y191.582 E119.27833
G0 F6000 X100.713 Y191.223
G1 F900 X48.487 Y138.997 E121.73489
G0 F6000 X48.099 Y139.238
G0 X47.166 Y137.738
G0 X47.554 Y137.498
G1 F900 X100.92 Y190.864 E124.24506
G0 F6000 X101.128 Y190.506
G1 F900 X46.622 Y136.001 E126.80883
G0 F6000 X46.234 Y136.241
G0 X45.302 Y134.743
G0 X45.69 Y134.503
G1 F900 X101.335 Y190.147 E129.42618
G0 F6000 X101.542 Y189.789
G1 F900 X44.758 Y133.005 E132.09712
G0 F6000 X44.37 Y133.245
G0 X43.438 Y131.748
G0 X43.826 Y131.508
G1 F900 X101.749 Y189.43 E134.82162
G0 F6000 X101.956 Y189.071
G1 F900 X42.895 Y130.01 E137.59967
G0 F6000 X42.506 Y130.251
G0 X41.574 Y128.752
G0 X41.962 Y128.512
G1 F900 X102.163 Y188.713 E140.43134
G0 F6000 X102.37 Y188.354
G1 F900 X41.03 Y127.014 E143.31658
G0 F6000 X40.642 Y127.255
G0 X39.709 Y125.757
G0 X40.098 Y125.516
G1 F900 X102.577 Y187.996 E146.25543
G0 F6000 X102.784 Y187.637
G1 F900 X39.166 Y124.019 E149.24782
G0 F6000 X38.778 Y124.259
G0 X37.846 Y122.762
G0 X38.234 Y122.521
G1 F900 X102.991 Y187.278 E152.29379
G0 F6000 X103.198 Y186.919
G1 F900 X37.302 Y121.023 E155.39334
G0 F6000 X36.913 Y121.264
G0 X35.982 Y119.766
G0 X36.37 Y119.526
G1 F900 X103.405 Y186.561 E158.54646
G0 F6000 X103.612 Y186.202
G1 F900 X35.437 Y118.027 E161.7532
G0 F6000 X35.049 Y118.267
G0 X34.117 Y116.77
G0 X34.505 Y116.53
