; generated by PrusaSlicer 2.7.4+win64 on 2024-05-25 at 20:55:01 UTC

; 

; external perimeters extrusion width = 0.42mm
; perimeters extrusion width = 0.44mm
; infill extrusion width = 0.44mm
; solid infill extrusion width = 0.44mm
; top infill extrusion width = 0.40mm
; first layer extrusion width = 0.42mm

; external perimeters extrusion width = 0.42mm
; perimeters extrusion width = 0.44mm
; infill extrusion width = 0.44mm
; solid infill extrusion width = 0.44mm
; top infill extrusion width = 0.40mm
; first layer extrusion width = 0.42mm

M201 X500 Y500 Z100 E5000 ; sets maximum accelerations, mm/sec^2
M203 X500 Y500 Z10 E60 ; sets maximum feedrates, mm / sec
M204 S500 T1000 ; sets acceleration (S) and retract acceleration (R), mm/sec^2
M205 X8.00 Y8.00 Z0.40 E5.00 ; sets the jerk limits, mm/sec
M205 S0 T0 ; sets the minimum extruding and travel feed rate, mm/sec

; printing object housing_pico_box.stl id:0 copy 0
; stop printing object housing_pico_box.stl id:0 copy 0
; printing object housing_pico_lid.stl id:1 copy 0
; stop printing object housing_pico_lid.stl id:1 copy 0

;TYPE:Custom
G90 ; use absolute coordinates
M83 ; extruder relative mode
M104 S150 ; set temporary nozzle temp to prevent oozing during homing
M140 S60 ; set final bed temp
G4 S30 ; allow partial nozzle warmup
G28 ; home all axis
G1 Z50 F240
G1 X2.0 Y10 F3000
M104 S205 ; set final nozzle temp
M190 S60 ; wait for bed temp to stabilize
M109 S205 ; wait for nozzle temp to stabilize
G1 Z0.28 F240
G92 E0
G1 X2.0 Y140 E10 F1500 ; prime the nozzle
G1 X2.3 Y140 F5000
G92 E0
G1 X2.3 Y10 E10 F1200 ; prime the nozzle
G92 E0
G21 ; set units to millimeters
G90 ; use absolute coordinates
M83 ; use relative distances for extrusion
; Filament gcode
M107
;LAYER_CHANGE
;Z:0.2
;HEIGHT:0.2
G1 E-5 F3600
G1 Z.2 F9000
G1 X44.131 Y47.913
G1 Z.2
G1 E5 F2400
M204 S500
;TYPE:Skirt/Brim
;WIDTH:0.42
G1 F1200
G1 X71.208 Y35.909 E.92867
G1 X72.169 Y35.548 E.03219
G1 X73.551 Y35.223 E.04451
G1 X74.411 Y35.129 E.02713
G1 X75.575 Y35.128 E.0365
G1 X182.798 Y44.636 E3.37509
G1 X184.34 Y45.169 E.05116
G1 X185.453 Y46.362 E.05116
G1 X185.877 Y48 E.05305
G1 X185.877 Y152 E3.26085
G1 X185.483 Y153.583 E.05115
G1 X184.393 Y154.797 E.05116
G1 X182.798 Y155.364 E.05308
G1 X75.575 Y164.872 E3.37509
G1 X74.723 Y164.885 E.02672
G1 X73.006 Y164.675 E.05424
G1 X71.208 Y164.091 E.05927
G1 X44.131 Y152.087 E.92867
G1 X42.844 Y151.085 E.05114
G1 X42.123 Y149 E.06917
G1 X42.123 Y51 E3.07272
G1 X42.517 Y49.417 E.05115
G1 X44.087 Y47.954 E.06729
G1 E-3.5 F3600
;WIPE_START
G1 F7200
G1 X44.131 Y47.913 E-.02857
G1 X46.963 Y46.658 E-1.47143
;WIPE_END
; printing object housing_pico_lid.stl id:1 copy 0
G1 X118.564 Y49.064 F9000
G1 E5 F2400
;TYPE:Perimeter
;WIDTH:0.419999
G1 F1200
G1 X181.436 Y49.064 E1.9713
G1 X181.436 Y80.5 E.98565
G1 X181.436 Y150.936 E2.20847
G1 X118.564 Y150.936 E1.9713
G1 X118.564 Y49.124 E3.19224
G1 X118.564 Y49.124 F9000
G1 X118.187 Y48.687
G1 F1200
G1 X181.813 Y48.687 E1.99495
G1 X181.813 Y80.5 E.99747
G1 X181.813 Y151.313 E2.22029
G1 X118.187 Y151.313 E1.99495
G1 X118.187 Y48.747 E3.21588
G1 X117.81 Y48.31 F9000
;TYPE:External perimeter
G1 F1200
G1 X182.19 Y48.31 E2.01859
G1 X182.19 Y80.5 E1.00929
G1 X182.19 Y151.69 E2.23211
G1 X117.81 Y151.69 E2.01859
G1 X117.81 Y48.37 E3.23952
G1 E-3.5 F3600
;WIPE_START
G1 F7200
G1 X117.81 Y48.31 E-.0285
G1 X120.908 Y48.31 E-1.4715
;WIPE_END
G1 X181.315 Y49.948 F9000
G1 E5 F2400
;TYPE:Solid infill
;WIDTH:0.420203
G1 F1200
G1 X180.722 Y49.355 E.02631
G1 X180.189 Y49.355 E.01672
G1 X181.145 Y50.311 E.04241
G1 X181.145 Y50.845 E.01675
G1 X179.655 Y49.355 E.0661
G1 X179.121 Y49.355 E.01675
G1 X181.145 Y51.379 E.0898
G1 X181.145 Y51.912 E.01672
G1 X178.588 Y49.355 E.11344
G1 X178.054 Y49.355 E.01675
G1 X181.145 Y52.446 E.13713
G1 X181.145 Y52.979 E.01672
G1 X177.521 Y49.355 E.16078
G1 X176.987 Y49.355 E.01675
G1 X181.145 Y53.513 E.18447
G1 X181.145 Y54.046 E.01672
G1 X176.454 Y49.355 E.20812
G1 X175.92 Y49.355 E.01675
G1 X181.145 Y54.58 E.23181
G1 X181.145 Y55.113 E.01672
G1 X175.387 Y49.355 E.25546
G1 X174.853 Y49.355 E.01675
G1 X181.145 Y55.647 E.27915
G1 X181.145 Y56.181 E.01675
G1 X174.319 Y49.355 E.30284
G1 X173.786 Y49.355 E.01672
G1 X181.145 Y56.714 E.32649
G1 X181.145 Y57.248 E.01675
G1 X173.252 Y49.355 E.35018
G1 X172.719 Y49.355 E.01672
G1 X181.145 Y57.781 E.37382
G1 X181.145 Y58.315 E.01675
G1 X172.185 Y49.355 E.39752
G1 X171.652 Y49.355 E.01672
G1 X181.145 Y58.848 E.42116
G1 X181.145 Y59.382 E.01675
G1 X171.118 Y49.355 E.44485
G1 X170.585 Y49.355 E.01672
G1 X181.145 Y59.915 E.4685
G1 X181.145 Y60.449 E.01675
G1 X170.051 Y49.355 E.49219
G1 X169.517 Y49.355 E.01675
G1 X181.145 Y60.983 E.51588
G1 X181.145 Y61.516 E.01672
G1 X168.984 Y49.355 E.53953
G1 X168.45 Y49.355 E.01675
G1 X181.145 Y62.05 E.56322
G1 X181.145 Y62.583 E.01672
G1 X167.917 Y49.355 E.58687
G1 X167.383 Y49.355 E.01675
G1 X181.145 Y63.117 E.61056
G1 X181.145 Y63.65 E.01672
G1 X166.85 Y49.355 E.63421
G1 X166.316 Y49.355 E.01675
G1 X181.145 Y64.184 E.6579
G1 X181.145 Y64.717 E.01672
G1 X165.783 Y49.355 E.68154
G1 X165.249 Y49.355 E.01675
G1 X181.145 Y65.251 E.70524
G1 X181.145 Y65.785 E.01675
G1 X164.715 Y49.355 E.72893
G1 X164.182 Y49.355 E.01672
G1 X181.145 Y66.318 E.75257
G1 X181.145 Y66.852 E.01675
G1 X163.648 Y49.355 E.77626
G1 X163.115 Y49.355 E.01672
G1 X181.145 Y67.385 E.79991
G1 X181.145 Y67.919 E.01675
G1 X162.581 Y49.355 E.8236
G1 X162.048 Y49.355 E.01672
G1 X181.145 Y68.452 E.84725
G1 X181.145 Y68.986 E.01675
G1 X161.514 Y49.355 E.87094
G1 X160.98 Y49.355 E.01675
G1 X181.145 Y69.52 E.89463
G1 X181.145 Y70.053 E.01672
G1 X160.447 Y49.355 E.91828
G1 X159.913 Y49.355 E.01675
G1 X181.145 Y70.587 E.94197
G1 X181.145 Y71.12 E.01672
G1 X159.38 Y49.355 E.96562
G1 X158.846 Y49.355 E.01675
G1 X181.145 Y71.654 E.98931
G1 X181.145 Y72.187 E.01672
G1 X158.313 Y49.355 E1.01296
G1 X157.779 Y49.355 E.01675
G1 X181.145 Y72.721 E1.03665
G1 X181.145 Y73.254 E.01672
G1 X157.246 Y49.355 E1.06029
G1 X156.712 Y49.355 E.01675
G1 X181.145 Y73.788 E1.08398
G1 X181.145 Y74.322 E.01675
G1 X156.178 Y49.355 E1.10768
G1 X155.645 Y49.355 E.01672
G1 X181.145 Y74.855 E1.13132
G1 X181.145 Y75.389 E.01675
G1 X155.111 Y49.355 E1.15501
G1 X154.578 Y49.355 E.01672
G1 X181.145 Y75.922 E1.17866
G1 X181.145 Y76.456 E.01675
G1 X154.044 Y49.355 E1.20235
G1 X153.511 Y49.355 E.01672
G1 X181.145 Y76.989 E1.226
G1 X181.145 Y77.523 E.01675
G1 X152.977 Y49.355 E1.24969
G1 X152.444 Y49.355 E.01672
G1 X181.145 Y78.056 E1.27334
G1 X181.145 Y78.59 E.01675
G1 X151.91 Y49.355 E1.29703
G1 X151.376 Y49.355 E.01675
G1 X181.145 Y79.124 E1.32072
G1 X181.145 Y79.657 E.01672
G1 X150.843 Y49.355 E1.34437
G1 X150.309 Y49.355 E.01675
G1 X181.145 Y80.191 E1.36806
G1 X181.145 Y80.724 E.01672
G1 X149.776 Y49.355 E1.3917
G1 X149.242 Y49.355 E.01675
G1 X181.145 Y81.258 E1.4154
G1 X181.145 Y81.791 E.01672
G1 X148.709 Y49.355 E1.43904
G1 X148.175 Y49.355 E.01675
G1 X181.145 Y82.325 E1.46273
G1 X181.145 Y82.858 E.01672
G1 X147.642 Y49.355 E1.48638
G1 X147.108 Y49.355 E.01675
G1 X181.145 Y83.392 E1.51007
G1 X181.145 Y83.926 E.01675
G1 X146.574 Y49.355 E1.53376
G1 X146.041 Y49.355 E.01672
G1 X181.145 Y84.459 E1.55741
G1 X181.145 Y84.993 E.01675
G1 X145.507 Y49.355 E1.5811
G1 X144.974 Y49.355 E.01672
G1 X181.145 Y85.526 E1.60475
G1 X181.145 Y86.06 E.01675
G1 X144.44 Y49.355 E1.62844
G1 X143.907 Y49.355 E.01672
G1 X181.145 Y86.593 E1.65209
G1 X181.145 Y87.127 E.01675
G1 X143.373 Y49.355 E1.67578
G1 X142.839 Y49.355 E.01675
G1 X181.145 Y87.661 E1.69947
G1 X181.145 Y88.194 E.01672
G1 X142.306 Y49.355 E1.72312
G1 X141.772 Y49.355 E.01675
G1 X181.145 Y88.728 E1.74681
G1 X181.145 Y89.261 E.01672
G1 X141.239 Y49.355 E1.77045
G1 X140.705 Y49.355 E.01675
G1 X181.145 Y89.795 E1.79414
G1 X181.145 Y90.328 E.01672
G1 X140.172 Y49.355 E1.81779
G1 X139.638 Y49.355 E.01675
G1 X181.145 Y90.862 E1.84148
G1 X181.145 Y91.395 E.01672
G1 X139.105 Y49.355 E1.86513
G1 X138.571 Y49.355 E.01675
G1 X181.145 Y91.929 E1.88882
G1 X181.145 Y92.463 E.01675
G1 X138.037 Y49.355 E1.91251
G1 X137.504 Y49.355 E.01672
G1 X181.145 Y92.996 E1.93616
G1 X181.145 Y93.53 E.01675
G1 X136.97 Y49.355 E1.95985
G1 X136.437 Y49.355 E.01672
G1 X181.145 Y94.063 E1.9835
G1 X181.145 Y94.597 E.01675
G1 X135.903 Y49.355 E2.00719
G1 X135.37 Y49.355 E.01672
G1 X181.145 Y95.13 E2.03083
G1 X181.145 Y95.664 E.01675
G1 X134.836 Y49.355 E2.05453
G1 X134.303 Y49.355 E.01672
G1 X181.145 Y96.197 E2.07817
G1 X181.145 Y96.731 E.01675
G1 X133.769 Y49.355 E2.10186
G1 X133.235 Y49.355 E.01675
G1 X181.145 Y97.265 E2.12556
G1 X181.145 Y97.798 E.01672
G1 X132.702 Y49.355 E2.1492
G1 X132.168 Y49.355 E.01675
G1 X181.145 Y98.332 E2.17289
G1 X181.145 Y98.865 E.01672
G1 X131.635 Y49.355 E2.19654
G1 X131.101 Y49.355 E.01675
G1 X181.145 Y99.399 E2.22023
G1 X181.145 Y99.932 E.01672
G1 X130.568 Y49.355 E2.24388
G1 X130.034 Y49.355 E.01675
G1 X181.145 Y100.466 E2.26757
G1 X181.145 Y100.999 E.01672
G1 X129.501 Y49.355 E2.29122
G1 X128.967 Y49.355 E.01675
G1 X181.145 Y101.533 E2.31491
G1 X181.145 Y102.067 E.01675
G1 X128.433 Y49.355 E2.3386
G1 X127.9 Y49.355 E.01672
G1 X181.145 Y102.6 E2.36225
G1 X181.145 Y103.134 E.01675
G1 X127.366 Y49.355 E2.38594
G1 X126.833 Y49.355 E.01672
G1 X181.145 Y103.667 E2.40958
G1 X181.145 Y104.201 E.01675
G1 X126.299 Y49.355 E2.43328
G1 X125.766 Y49.355 E.01672
G1 X181.145 Y104.734 E2.45692
G1 X181.145 Y105.268 E.01675
G1 X125.232 Y49.355 E2.48061
G1 X124.698 Y49.355 E.01675
G1 X181.145 Y105.802 E2.5043
G1 X181.145 Y106.335 E.01672
G1 X124.165 Y49.355 E2.52795
G1 X123.631 Y49.355 E.01675
G1 X181.145 Y106.869 E2.55164
G1 X181.145 Y107.402 E.01672
G1 X123.098 Y49.355 E2.57529
G1 X122.564 Y49.355 E.01675
G1 X181.145 Y107.936 E2.59898
G1 X181.145 Y108.469 E.01672
G1 X122.031 Y49.355 E2.62263
G1 X121.497 Y49.355 E.01675
G1 X181.145 Y109.003 E2.64632
G1 X181.145 Y109.536 E.01672
G1 X120.964 Y49.355 E2.66997
G1 X120.43 Y49.355 E.01675
G1 X181.145 Y110.07 E2.69366
G1 X181.145 Y110.604 E.01675
G1 X119.896 Y49.355 E2.71735
G1 X119.363 Y49.355 E.01672
G1 X181.145 Y111.137 E2.74099
G1 X181.145 Y111.671 E.01675
G1 X118.855 Y49.38 E2.76355
G1 X118.855 Y49.913 E.01672
G1 X181.145 Y112.204 E2.76355
G1 X181.145 Y112.738 E.01675
G1 X118.855 Y50.447 E2.76355
G1 X118.855 Y50.98 E.01672
G1 X181.145 Y113.271 E2.76355
G1 X181.145 Y113.805 E.01675
G1 X118.855 Y51.514 E2.76355
G1 X118.855 Y52.047 E.01672
G1 X181.145 Y114.338 E2.76355
G1 X181.145 Y114.872 E.01675
G1 X118.855 Y52.581 E2.76355
G1 X118.855 Y53.115 E.01675
G1 X181.145 Y115.406 E2.76355
G1 X181.145 Y115.939 E.01672
G1 X118.855 Y53.648 E2.76355
G1 X118.855 Y54.182 E.01675
G1 X181.145 Y116.473 E2.76355
G1 X181.145 Y117.006 E.01672
G1 X118.855 Y54.715 E2.76355
G1 X118.855 Y55.249 E.01675
G1 X181.145 Y117.54 E2.76355
G1 X181.145 Y118.073 E.01672
G1 X118.855 Y55.782 E2.76355
G1 X118.855 Y56.316 E.01675
G1 X181.145 Y118.607 E2.76355
G1 X181.145 Y119.14 E.01672
G1 X118.855 Y56.849 E2.76355
G1 X118.855 Y57.383 E.01675
G1 X181.145 Y119.674 E2.76355
G1 X181.145 Y120.208 E.01675
G1 X118.855 Y57.917 E2.76355
G1 X118.855 Y58.45 E.01672
G1 X181.145 Y120.741 E2.76355
G1 X181.145 Y121.275 E.01675
G1 X118.855 Y58.984 E2.76355
G1 X118.855 Y59.517 E.01672
G1 X181.145 Y121.808 E2.76355
G1 X181.145 Y122.342 E.01675
G1 X118.855 Y60.051 E2.76355
G1 X118.855 Y60.584 E.01672
G1 X181.145 Y122.875 E2.76355
G1 X181.145 Y123.409 E.01675
G1 X118.855 Y61.118 E2.76355
G1 X118.855 Y61.652 E.01675
G1 X181.145 Y123.943 E2.76355
G1 X181.145 Y124.476 E.01672
G1 X118.855 Y62.185 E2.76355
G1 X118.855 Y62.719 E.01675
G1 X181.145 Y125.01 E2.76355
G1 X181.145 Y125.543 E.01672
G1 X118.855 Y63.252 E2.76355
G1 X118.855 Y63.786 E.01675
G1 X181.145 Y126.077 E2.76355
G1 X181.145 Y126.61 E.01672
G1 X118.855 Y64.319 E2.76355
G1 X118.855 Y64.853 E.01675
G1 X181.145 Y127.144 E2.76355
G1 X181.145 Y127.677 E.01672
G1 X118.855 Y65.386 E2.76355
G1 X118.855 Y65.92 E.01675
G1 X181.145 Y128.211 E2.76355
G1 X181.145 Y128.745 E.01675
G1 X118.855 Y66.454 E2.76355
G1 X118.855 Y66.987 E.01672
G1 X181.145 Y129.278 E2.76355
G1 X181.145 Y129.812 E.01675
G1 X118.855 Y67.521 E2.76355
G1 X118.855 Y68.054 E.01672
G1 X181.145 Y130.345 E2.76355
G1 X181.145 Y130.879 E.01675
G1 X118.855 Y68.588 E2.76355
G1 X118.855 Y69.121 E.01672
G1 X181.145 Y131.412 E2.76355
G1 X181.145 Y131.946 E.01675
G1 X118.855 Y69.655 E2.76355
G1 X118.855 Y70.188 E.01672
G1 X181.145 Y132.479 E2.76355
G1 X181.145 Y133.013 E.01675
G1 X118.855 Y70.722 E2.76355
G1 X118.855 Y71.256 E.01675
G1 X181.145 Y133.547 E2.76355
G1 X181.145 Y134.08 E.01672
G1 X118.855 Y71.789 E2.76355
G1 X118.855 Y72.323 E.01675
G1 X181.145 Y134.614 E2.76355
G1 X181.145 Y135.147 E.01672
G1 X118.855 Y72.856 E2.76355
G1 X118.855 Y73.39 E.01675
G1 X181.145 Y135.681 E2.76355
G1 X181.145 Y136.214 E.01672
G1 X118.855 Y73.923 E2.76355
G1 X118.855 Y74.457 E.01675
G1 X181.145 Y136.748 E2.76355
G1 X181.145 Y137.281 E.01672
G1 X118.855 Y74.99 E2.76355
G1 X118.855 Y75.524 E.01675
G1 X181.145 Y137.815 E2.76355
G1 X181.145 Y138.349 E.01675
G1 X118.855 Y76.058 E2.76355
G1 X118.855 Y76.591 E.01672
G1 X181.145 Y138.882 E2.76355
G1 X181.145 Y139.416 E.01675
G1 X118.855 Y77.125 E2.76355
G1 X118.855 Y77.658 E.01672
G1 X181.145 Y139.949 E2.76355
G1 X181.145 Y140.483 E.01675
G1 X118.855 Y78.192 E2.76355
G1 X118.855 Y78.725 E.01672
G1 X181.145 Y141.016 E2.76355
G1 X181.145 Y141.55 E.01675
G1 X118.855 Y79.259 E2.76355
G1 X118.855 Y79.793 E.01675
G1 X181.145 Y142.084 E2.76355
G1 X181.145 Y142.617 E.01672
G1 X118.855 Y80.326 E2.76355
G1 X118.855 Y80.86 E.01675
G1 X181.145 Y143.151 E2.76355
G1 X181.145 Y143.684 E.01672
G1 X118.855 Y81.393 E2.76355
G1 X118.855 Y81.927 E.01675
G1 X181.145 Y144.218 E2.76355
G1 X181.145 Y144.751 E.01672
G1 X118.855 Y82.46 E2.76355
G1 X118.855 Y82.994 E.01675
G1 X181.145 Y145.285 E2.76355
G1 X181.145 Y145.818 E.01672
G1 X118.855 Y83.527 E2.76355
G1 X118.855 Y84.061 E.01675
G1 X181.145 Y146.352 E2.76355
G1 X181.145 Y146.886 E.01675
G1 X118.855 Y84.595 E2.76355
G1 X118.855 Y85.128 E.01672
G1 X181.145 Y147.419 E2.76355
G1 X181.145 Y147.953 E.01675
G1 X118.855 Y85.662 E2.76355
G1 X118.855 Y86.195 E.01672
G1 X181.145 Y148.486 E2.76355
G1 X181.145 Y149.02 E.01675
G1 X118.855 Y86.729 E2.76355
G1 X118.855 Y87.262 E.01672
G1 X181.145 Y149.553 E2.76355
G1 X181.145 Y150.087 E.01675
G1 X118.855 Y87.796 E2.76355
G1 X118.855 Y88.329 E.01672
G1 X181.145 Y150.62 E2.76355
G1 X181.145 Y150.645 E.00078
G1 X180.637 Y150.645 E.01594
G1 X118.855 Y88.863 E2.74099
G1 X118.855 Y89.397 E.01675
G1 X180.103 Y150.645 E2.7173
G1 X179.57 Y150.645 E.01672
G1 X118.855 Y89.93 E2.69366
G1 X118.855 Y90.464 E.01675
G1 X179.036 Y150.645 E2.66997
G1 X178.503 Y150.645 E.01672
G1 X118.855 Y90.997 E2.64632
G1 X118.855 Y91.531 E.01675
G1 X177.969 Y150.645 E2.62263
G1 X177.436 Y150.645 E.01672
G1 X118.855 Y92.064 E2.59898
G1 X118.855 Y92.598 E.01675
G1 X176.902 Y150.645 E2.57529
G1 X176.369 Y150.645 E.01672
G1 X118.855 Y93.131 E2.55164
G1 X118.855 Y93.665 E.01675
G1 X175.835 Y150.645 E2.52795
G1 X175.301 Y150.645 E.01675
G1 X118.855 Y94.199 E2.50426
G1 X118.855 Y94.732 E.01672
G1 X174.768 Y150.645 E2.48061
G1 X174.234 Y150.645 E.01675
G1 X118.855 Y95.266 E2.45692
G1 X118.855 Y95.799 E.01672
G1 X173.701 Y150.645 E2.43328
G1 X173.167 Y150.645 E.01675
G1 X118.855 Y96.333 E2.40958
G1 X118.855 Y96.866 E.01672
G1 X172.634 Y150.645 E2.38594
G1 X172.1 Y150.645 E.01675
G1 X118.855 Y97.4 E2.36225
G1 X118.855 Y97.934 E.01675
G1 X171.566 Y150.645 E2.33855
G1 X171.033 Y150.645 E.01672
G1 X118.855 Y98.467 E2.31491
G1 X118.855 Y99.001 E.01675
G1 X170.499 Y150.645 E2.29122
G1 X169.966 Y150.645 E.01672
G1 X118.855 Y99.534 E2.26757
G1 X118.855 Y100.068 E.01675
G1 X169.432 Y150.645 E2.24388
G1 X168.899 Y150.645 E.01672
G1 X118.855 Y100.601 E2.22023
G1 X118.855 Y101.135 E.01675
G1 X168.365 Y150.645 E2.19654
G1 X167.832 Y150.645 E.01672
G1 X118.855 Y101.668 E2.17289
G1 X118.855 Y102.202 E.01675
G1 X167.298 Y150.645 E2.1492
G1 X166.764 Y150.645 E.01675
G1 X118.855 Y102.736 E2.12551
G1 X118.855 Y103.269 E.01672
G1 X166.231 Y150.645 E2.10186
G1 X165.697 Y150.645 E.01675
G1 X118.855 Y103.803 E2.07817
