; generated by PrusaSlicer 2.7.4+win64 on 2024-05-24 at 15:16:29 UTC

; 

; external perimeters extrusion width = 0.42mm
; perimeters extrusion width = 0.44mm
; infill extrusion width = 0.44mm
; solid infill extrusion width = 0.44mm
; top infill extrusion width = 0.40mm
; first layer extrusion width = 0.42mm

M201 X500 Y500 Z100 E5000 ; sets maximum accelerations, mm/sec^2
M203 X500 Y500 Z10 E60 ; sets maximum feedrates, mm / sec
M204 S500 T1000 ; sets acceleration (S) and retract acceleration (R), mm/sec^2
M205 X8.00 Y8.00 Z0.40 E5.00 ; sets the jerk limits, mm/sec
M205 S0 T0 ; sets the minimum extruding and travel feed rate, mm/sec

; printing object housing_pico.stl id:0 copy 0
; stop printing object housing_pico.stl id:0 copy 0

;TYPE:Custom
G90 ; use absolute coordinates
M83 ; extruder relative mode
M104 S150 ; set temporary nozzle temp to prevent oozing during homing
M140 S60 ; set final bed temp
G4 S30 ; allow partial nozzle warmup
G28 ; home all axis
G1 Z50 F240
G1 X2.0 Y10 F3000
M104 S205 ; set final nozzle temp
M190 S60 ; wait for bed temp to stabilize
M109 S205 ; wait for nozzle temp to stabilize
G1 Z0.28 F240
G92 E0
G1 X2.0 Y140 E10 F1500 ; prime the nozzle
G1 X2.3 Y140 F5000
G92 E0
G1 X2.3 Y10 E10 F1200 ; prime the nozzle
G92 E0
G21 ; set units to millimeters
G90 ; use absolute coordinates
M83 ; use relative distances for extrusion
; Filament gcode
M107
;LAYER_CHANGE
;Z:0.2
;HEIGHT:0.2
G1 E-5 F3600
G1 Z.2 F9000
G1 X91.517 Y76.917
G1 Z.2
G1 E5 F2400
M204 S500
;TYPE:Skirt/Brim
;WIDTH:0.42
G1 F1200
G1 X92.607 Y75.703 E.05116
G1 X94.5 Y75.123 E.06208
G1 X125.5 Y75.123 E.97198
G1 X127.083 Y75.517 E.05115
G1 X128.297 Y76.607 E.05116
G1 X128.877 Y78.5 E.06208
G1 X128.877 Y141.5 E1.97532
G1 X128.483 Y143.083 E.05115
G1 X127.393 Y144.297 E.05116
G1 X125.5 Y144.877 E.06208
G1 X94.5 Y144.877 E.97198
G1 X92.917 Y144.483 E.05115
G1 X91.703 Y143.393 E.05116
G1 X91.123 Y141.5 E.06208
G1 X91.123 Y78.5 E1.97532
G1 X91.503 Y76.975 E.04928
G1 E-3.5 F3600
;WIPE_START
G1 F7200
G1 X91.517 Y76.917 E-.02834
G1 X92.607 Y75.703 E-.77498
G1 X94.009 Y75.273 E-.69668
;WIPE_END
; printing object housing_pico.stl id:0 copy 0
G1 X95.564 Y79.564 F9000
G1 E5 F2400
;TYPE:Perimeter
;WIDTH:0.419999
G1 F1200
G1 X124.436 Y79.564 E.90526
G1 X124.436 Y94 E.45263
G1 X124.436 Y140.436 E1.45597
G1 X95.564 Y140.436 E.90526
G1 X95.564 Y79.624 E1.90671
G1 X95.564 Y79.624 F9000
G1 X95.187 Y79.187
G1 F1200
G1 X124.813 Y79.187 E.9289
G1 X124.813 Y94 E.46445
G1 X124.813 Y140.813 E1.46779
G1 X95.187 Y140.813 E.9289
G1 X95.187 Y79.247 E1.93036
G1 X94.81 Y78.81 F9000
;TYPE:External perimeter
G1 F1200
G1 X125.19 Y78.81 E.95254
G1 X125.19 Y94 E.47627
G1 X125.19 Y141.19 E1.47961
G1 X94.81 Y141.19 E.95254
G1 X94.81 Y78.87 E1.954
G1 E-3.5 F3600
;WIPE_START
G1 F7200
G1 X94.81 Y78.81 E-.0285
G1 X97.908 Y78.81 E-1.4715
;WIPE_END
G1 X124.315 Y80.45 F9000
G1 E5 F2400
;TYPE:Solid infill
;WIDTH:0.421184
G1 F1200
G1 X123.72 Y79.855 E.02647
G1 X123.185 Y79.855 E.01683
G1 X124.145 Y80.815 E.0427
G1 X124.145 Y81.35 E.01683
G1 X122.65 Y79.855 E.0665
G1 X122.115 Y79.855 E.01683
G1 X124.145 Y81.885 E.0903
G1 X124.145 Y82.42 E.01683
G1 X121.58 Y79.855 E.11409
G1 X121.045 Y79.855 E.01683
G1 X124.145 Y82.955 E.13789
G1 X124.145 Y83.49 E.01683
G1 X120.51 Y79.855 E.16169
G1 X119.975 Y79.855 E.01683
G1 X124.145 Y84.025 E.18549
G1 X124.145 Y84.559 E.0168
G1 X119.441 Y79.855 E.20924
G1 X118.906 Y79.855 E.01683
G1 X124.145 Y85.094 E.23304
G1 X124.145 Y85.629 E.01683
G1 X118.371 Y79.855 E.25683
G1 X117.836 Y79.855 E.01683
G1 X124.145 Y86.164 E.28063
G1 X124.145 Y86.699 E.01683
G1 X117.301 Y79.855 E.30443
G1 X116.766 Y79.855 E.01683
G1 X124.145 Y87.234 E.32822
G1 X124.145 Y87.769 E.01683
G1 X116.231 Y79.855 E.35202
G1 X115.696 Y79.855 E.01683
G1 X124.145 Y88.304 E.37582
G1 X124.145 Y88.839 E.01683
G1 X115.161 Y79.855 E.39962
G1 X114.626 Y79.855 E.01683
G1 X124.145 Y89.374 E.42341
G1 X124.145 Y89.909 E.01683
G1 X114.091 Y79.855 E.44721
G1 X113.556 Y79.855 E.01683
G1 X124.145 Y90.444 E.47101
G1 X124.145 Y90.979 E.01683
G1 X113.021 Y79.855 E.49481
G1 X112.486 Y79.855 E.01683
G1 X124.145 Y91.514 E.5186
G1 X124.145 Y92.049 E.01683
G1 X111.951 Y79.855 E.5424
G1 X111.416 Y79.855 E.01683
G1 X124.145 Y92.584 E.5662
G1 X124.145 Y93.119 E.01683
G1 X110.881 Y79.855 E.59
G1 X110.346 Y79.855 E.01683
G1 X124.145 Y93.654 E.61379
G1 X124.145 Y94.189 E.01683
G1 X109.811 Y79.855 E.63759
G1 X109.277 Y79.855 E.0168
G1 X124.145 Y94.723 E.66134
G1 X124.145 Y95.258 E.01683
G1 X108.742 Y79.855 E.68514
G1 X108.207 Y79.855 E.01683
G1 X124.145 Y95.793 E.70894
G1 X124.145 Y96.328 E.01683
G1 X107.672 Y79.855 E.73273
G1 X107.137 Y79.855 E.01683
G1 X124.145 Y96.863 E.75653
G1 X124.145 Y97.398 E.01683
G1 X106.602 Y79.855 E.78033
G1 X106.067 Y79.855 E.01683
G1 X124.145 Y97.933 E.80413
G1 X124.145 Y98.468 E.01683
G1 X105.532 Y79.855 E.82792
G1 X104.997 Y79.855 E.01683
G1 X124.145 Y99.003 E.85172
G1 X124.145 Y99.538 E.01683
G1 X104.462 Y79.855 E.87552
G1 X103.927 Y79.855 E.01683
G1 X124.145 Y100.073 E.89932
G1 X124.145 Y100.608 E.01683
G1 X103.392 Y79.855 E.92311
G1 X102.857 Y79.855 E.01683
G1 X124.145 Y101.143 E.94691
G1 X124.145 Y101.678 E.01683
G1 X102.322 Y79.855 E.97071
G1 X101.787 Y79.855 E.01683
G1 X124.145 Y102.213 E.99451
G1 X124.145 Y102.748 E.01683
G1 X101.252 Y79.855 E1.0183
G1 X100.717 Y79.855 E.01683
G1 X124.145 Y103.283 E1.0421
G1 X124.145 Y103.818 E.01683
G1 X100.182 Y79.855 E1.0659
G1 X99.648 Y79.855 E.0168
G1 X124.145 Y104.352 E1.08965
G1 X124.145 Y104.887 E.01683
G1 X99.113 Y79.855 E1.11345
G1 X98.578 Y79.855 E.01683
G1 X124.145 Y105.422 E1.13724
G1 X124.145 Y105.957 E.01683
G1 X98.043 Y79.855 E1.16104
G1 X97.508 Y79.855 E.01683
G1 X124.145 Y106.492 E1.18484
G1 X124.145 Y107.027 E.01683
G1 X96.973 Y79.855 E1.20864
G1 X96.438 Y79.855 E.01683
G1 X124.145 Y107.562 E1.23243
G1 X124.145 Y108.097 E.01683
G1 X95.903 Y79.855 E1.25623
G1 X95.855 Y79.855 E.00151
G1 X95.855 Y80.341 E.01529
G1 X124.145 Y108.632 E1.25839
G1 X124.145 Y109.167 E.01683
G1 X95.855 Y80.876 E1.25839
G1 X95.855 Y81.411 E.01683
G1 X124.145 Y109.702 E1.25839
G1 X124.145 Y110.237 E.01683
G1 X95.855 Y81.946 E1.25839
G1 X95.855 Y82.481 E.01683
G1 X124.145 Y110.772 E1.25839
G1 X124.145 Y111.307 E.01683
G1 X95.855 Y83.016 E1.25839
G1 X95.855 Y83.551 E.01683
G1 X124.145 Y111.842 E1.25839
G1 X124.145 Y112.377 E.01683
G1 X95.855 Y84.086 E1.25839
G1 X95.855 Y84.621 E.01683
G1 X124.145 Y112.912 E1.25839
G1 X124.145 Y113.447 E.01683
G1 X95.855 Y85.156 E1.25839
G1 X95.855 Y85.691 E.01683
G1 X124.145 Y113.982 E1.25839
G1 X124.145 Y114.516 E.0168
G1 X95.855 Y86.225 E1.25839
G1 X95.855 Y86.76 E.01683
G1 X124.145 Y115.051 E1.25839
G1 X124.145 Y115.586 E.01683
G1 X95.855 Y87.295 E1.25839
G1 X95.855 Y87.83 E.01683
G1 X124.145 Y116.121 E1.25839
G1 X124.145 Y116.656 E.01683
G1 X95.855 Y88.365 E1.25839
G1 X95.855 Y88.9 E.01683
G1 X124.145 Y117.191 E1.25839
G1 X124.145 Y117.726 E.01683
G1 X95.855 Y89.435 E1.25839
G1 X95.855 Y89.97 E.01683
G1 X124.145 Y118.261 E1.25839
G1 X124.145 Y118.796 E.01683
G1 X95.855 Y90.505 E1.25839
G1 X95.855 Y91.04 E.01683
G1 X124.145 Y119.331 E1.25839
G1 X124.145 Y119.866 E.01683
G1 X95.855 Y91.575 E1.25839
G1 X95.855 Y92.11 E.01683
G1 X124.145 Y120.401 E1.25839
G1 X124.145 Y120.936 E.01683
G1 X95.855 Y92.645 E1.25839
G1 X95.855 Y93.18 E.01683
G1 X124.145 Y121.471 E1.25839
G1 X124.145 Y122.006 E.01683
G1 X95.855 Y93.715 E1.25839
G1 X95.855 Y94.25 E.01683
G1 X124.145 Y122.541 E1.25839
G1 X124.145 Y123.076 E.01683
G1 X95.855 Y94.785 E1.25839
G1 X95.855 Y95.32 E.01683
G1 X124.145 Y123.611 E1.25839
G1 X124.145 Y124.146 E.01683
G1 X95.855 Y95.855 E1.25839
G1 X95.855 Y96.389 E.0168
G1 X124.145 Y124.68 E1.25839
G1 X124.145 Y125.215 E.01683
G1 X95.855 Y96.924 E1.25839
G1 X95.855 Y97.459 E.01683
G1 X124.145 Y125.75 E1.25839
G1 X124.145 Y126.285 E.01683
G1 X95.855 Y97.994 E1.25839
G1 X95.855 Y98.529 E.01683
G1 X124.145 Y126.82 E1.25839
G1 X124.145 Y127.355 E.01683
G1 X95.855 Y99.064 E1.25839
G1 X95.855 Y99.599 E.01683
G1 X124.145 Y127.89 E1.25839
G1 X124.145 Y128.425 E.01683
G1 X95.855 Y100.134 E1.25839
G1 X95.855 Y100.669 E.01683
G1 X124.145 Y128.96 E1.25839
G1 X124.145 Y129.495 E.01683
G1 X95.855 Y101.204 E1.25839
G1 X95.855 Y101.739 E.01683
G1 X124.145 Y130.03 E1.25839
G1 X124.145 Y130.565 E.01683
G1 X95.855 Y102.274 E1.25839
G1 X95.855 Y102.809 E.01683
G1 X124.145 Y131.1 E1.25839
G1 X124.145 Y131.635 E.01683
G1 X95.855 Y103.344 E1.25839
G1 X95.855 Y103.879 E.01683
G1 X124.145 Y132.17 E1.25839
G1 X124.145 Y132.705 E.01683
G1 X95.855 Y104.414 E1.25839
G1 X95.855 Y104.949 E.01683
G1 X124.145 Y133.24 E1.25839
G1 X124.145 Y133.775 E.01683
G1 X95.855 Y105.484 E1.25839
G1 X95.855 Y106.018 E.0168
G1 X124.145 Y134.309 E1.25839
G1 X124.145 Y134.844 E.01683
G1 X95.855 Y106.553 E1.25839
G1 X95.855 Y107.088 E.01683
G1 X124.145 Y135.379 E1.25839
G1 X124.145 Y135.914 E.01683
G1 X95.855 Y107.623 E1.25839
G1 X95.855 Y108.158 E.01683
G1 X124.145 Y136.449 E1.25839
G1 X124.145 Y136.984 E.01683
G1 X95.855 Y108.693 E1.25839
G1 X95.855 Y109.228 E.01683
G1 X124.145 Y137.519 E1.25839
G1 X124.145 Y138.054 E.01683
G1 X95.855 Y109.763 E1.25839
G1 X95.855 Y110.298 E.01683
G1 X124.145 Y138.589 E1.25839
G1 X124.145 Y139.124 E.01683
G1 X95.855 Y110.833 E1.25839
G1 X95.855 Y111.368 E.01683
G1 X124.145 Y139.659 E1.25839
G1 X124.145 Y140.145 E.01529
G1 X124.097 Y140.145 E.00151
G1 X95.855 Y111.903 E1.25623
G1 X95.855 Y112.438 E.01683
G1 X123.562 Y140.145 E1.23243
G1 X123.027 Y140.145 E.01683
G1 X95.855 Y112.973 E1.20864
G1 X95.855 Y113.508 E.01683
G1 X122.492 Y140.145 E1.18484
G1 X121.957 Y140.145 E.01683
G1 X95.855 Y114.043 E1.16104
G1 X95.855 Y114.578 E.01683
G1 X121.422 Y140.145 E1.13724
G1 X120.887 Y140.145 E.01683
G1 X95.855 Y115.113 E1.11345
G1 X95.855 Y115.648 E.01683
G1 X120.352 Y140.145 E1.08965
G1 X119.818 Y140.145 E.0168
G1 X95.855 Y116.182 E1.0659
G1 X95.855 Y116.717 E.01683
G1 X119.283 Y140.145 E1.0421
G1 X118.748 Y140.145 E.01683
G1 X95.855 Y117.252 E1.0183
G1 X95.855 Y117.787 E.01683
G1 X118.213 Y140.145 E.99451
G1 X117.678 Y140.145 E.01683
G1 X95.855 Y118.322 E.97071
G1 X95.855 Y118.857 E.01683
G1 X117.143 Y140.145 E.94691
G1 X116.608 Y140.145 E.01683
G1 X95.855 Y119.392 E.92311
G1 X95.855 Y119.927 E.01683
G1 X116.073 Y140.145 E.89932
G1 X115.538 Y140.145 E.01683
G1 X95.855 Y120.462 E.87552
G1 X95.855 Y120.997 E.01683
G1 X115.003 Y140.145 E.85172
G1 X114.468 Y140.145 E.01683
G1 X95.855 Y121.532 E.82792
G1 X95.855 Y122.067 E.01683
G1 X113.933 Y140.145 E.80413
G1 X113.398 Y140.145 E.01683
G1 X95.855 Y122.602 E.78033
G1 X95.855 Y123.137 E.01683
G1 X112.863 Y140.145 E.75653
G1 X112.328 Y140.145 E.01683
G1 X95.855 Y123.672 E.73273
G1 X95.855 Y124.207 E.01683
G1 X111.793 Y140.145 E.70894
G1 X111.258 Y140.145 E.01683
G1 X95.855 Y124.742 E.68514
G1 X95.855 Y125.277 E.01683
G1 X110.723 Y140.145 E.66134
G1 X110.189 Y140.145 E.0168
G1 X95.855 Y125.811 E.63759
G1 X95.855 Y126.346 E.01683
G1 X109.654 Y140.145 E.61379
G1 X109.119 Y140.145 E.01683
G1 X95.855 Y126.881 E.59
G1 X95.855 Y127.416 E.01683
G1 X108.584 Y140.145 E.5662
G1 X108.049 Y140.145 E.01683
G1 X95.855 Y127.951 E.5424
G1 X95.855 Y128.486 E.01683
G1 X107.514 Y140.145 E.5186
G1 X106.979 Y140.145 E.01683
G1 X95.855 Y129.021 E.49481
G1 X95.855 Y129.556 E.01683
G1 X106.444 Y140.145 E.47101
G1 X105.909 Y140.145 E.01683
G1 X95.855 Y130.091 E.44721
G1 X95.855 Y130.626 E.01683
G1 X105.374 Y140.145 E.42341
G1 X104.839 Y140.145 E.01683
G1 X95.855 Y131.161 E.39962
G1 X95.855 Y131.696 E.01683
G1 X104.304 Y140.145 E.37582
G1 X103.769 Y140.145 E.01683
G1 X95.855 Y132.231 E.35202
G1 X95.855 Y132.766 E.01683
G1 X103.234 Y140.145 E.32822
G1 X102.699 Y140.145 E.01683
G1 X95.855 Y133.301 E.30443
G1 X95.855 Y133.836 E.01683
G1 X102.164 Y140.145 E.28063
G1 X101.629 Y140.145 E.01683
G1 X95.855 Y134.371 E.25683
G1 X95.855 Y134.906 E.01683
G1 X101.094 Y140.145 E.23304
G1 X100.559 Y140.145 E.01683
G1 X95.855 Y135.441 E.20924
G1 X95.855 Y135.975 E.0168
G1 X100.025 Y140.145 E.18549
G1 X99.49 Y140.145 E.01683
G1 X95.855 Y136.51 E.16169
G1 X95.855 Y137.045 E.01683
G1 X98.955 Y140.145 E.13789
G1 X98.42 Y140.145 E.01683
G1 X95.855 Y137.58 E.11409
G1 X95.855 Y138.115 E.01683
G1 X97.885 Y140.145 E.0903
G1 X97.35 Y140.145 E.01683
G1 X95.855 Y138.65 E.0665
G1 X95.855 Y139.185 E.01683
G1 X96.815 Y140.145 E.0427
G1 X96.28 Y140.145 E.01683
G1 X95.685 Y139.55 E.02647
M106 S255
;LAYER_CHANGE
;Z:0.36
;HEIGHT:0.16
;BEFORE_LAYER_CHANGE
G92 E0
;0.36


G1 E-3.5 F3600
;WIPE_START
G1 F7200
G1 X96.28 Y140.145 E-.39969
G1 X96.815 Y140.145 E-.25412
G1 X95.855 Y139.185 E-.64488
G1 X95.855 Y138.761 E-.20131
;WIPE_END
G1 Z.36 F9000
;AFTER_LAYER_CHANGE
;0.36
M104 S200 ; set temperature
; stop printing object housing_pico.stl id:0 copy 0
G1 Z.36
G1 X91.123 Y138.761
G1 E5 F2400
;TYPE:Skirt/Brim
;WIDTH:0.42
G1 X91.123 Y78.5 E1.54596
G1 X91.517 Y76.917 E.04185
G1 X92.607 Y75.703 E.04186
G1 X94.5 Y75.123 E.05079
G1 X125.5 Y75.123 E.79529
G1 X127.083 Y75.517 E.04185
G1 X128.297 Y76.607 E.04186
G1 X128.877 Y78.5 E.05079
G1 X128.877 Y141.5 E1.61623
G1 X128.483 Y143.083 E.04185
G1 X127.393 Y144.297 E.04186
G1 X125.5 Y144.877 E.05079
G1 X94.5 Y144.877 E.79529
G1 X92.917 Y144.483 E.04185
G1 X91.703 Y143.393 E.04186
G1 X91.123 Y141.5 E.05079
G1 X91.123 Y138.821 E.06873
G1 E-3.5 F3600
;WIPE_START
G1 F7200
G1 X91.123 Y138.761 E-.0285
G1 X91.123 Y135.663 E-1.4715
;WIPE_END
; printing object housing_pico.stl id:0 copy 0
G1 X95.511 Y140.489 F9000
G1 E5 F2400
;TYPE:Perimeter
;WIDTH:0.439999
G1 F3600
G1 X95.511 Y79.511 E1.64548
G1 X124.489 Y79.511 E.78197
G1 X124.489 Y94 E.39098
G1 X124.489 Y140.489 E1.2545
G1 X95.571 Y140.489 E.78035
G1 X95.571 Y140.489 F9000
G1 X95.106 Y140.894
G1 F3600
G1 X95.106 Y79.106 E1.66734
G1 X124.894 Y79.106 E.80382
G1 X124.894 Y94 E.40191
G1 X124.894 Y140.894 E1.26543
G1 X95.166 Y140.894 E.8022
G1 X95.166 Y140.894 F9000
G1 X94.71 Y141.29
;TYPE:External perimeter
;WIDTH:0.419999
G1 F1800
G1 X94.71 Y78.71 E1.60545
G1 X125.29 Y78.71 E.78451
G1 X125.29 Y94 E.39226
G1 X125.29 Y141.29 E1.2132
G1 X94.77 Y141.29 E.78297
G1 E-3.5 F3600
;WIPE_START
G1 F7200
G1 X94.71 Y141.29 E-.0285
G1 X94.71 Y138.192 E-1.4715
;WIPE_END
G1 X95.934 Y79.857 F9000
G1 E5 F2400
;TYPE:Solid infill
;WIDTH:0.538422
G1 F3600
G1 X95.889 Y79.812 E.00213
G1 X95.828 Y79.828 E.00211
G1 X95.812 Y79.889 E.00211
G1 X95.857 Y79.934 E.00213
G1 X95.917 Y79.917 E.00209
;WIDTH:0.439999
G1 X96.565 Y79.824 E.01767
G1 X95.824 Y80.565 E.02828
G1 X95.824 Y81.139 E.01549
G1 X97.139 Y79.824 E.05018
G1 X97.713 Y79.824 E.01549
G1 X95.824 Y81.713 E.07209
G1 X95.824 Y82.286 E.01546
G1 X98.286 Y79.824 E.09396
G1 X98.86 Y79.824 E.01549
G1 X95.824 Y82.86 E.11586
G1 X95.824 Y83.434 E.01549
G1 X99.434 Y79.824 E.13777
G1 X100.008 Y79.824 E.01549
G1 X95.824 Y84.008 E.15967
G1 X95.824 Y84.581 E.01546
G1 X100.581 Y79.824 E.18154
G1 X101.155 Y79.824 E.01549
G1 X95.824 Y85.155 E.20344
G1 X95.824 Y85.729 E.01549
G1 X101.729 Y79.824 E.22535
G1 X102.302 Y79.824 E.01546
G1 X95.824 Y86.302 E.24722
G1 X95.824 Y86.876 E.01549
G1 X102.876 Y79.824 E.26912
G1 X103.45 Y79.824 E.01549
G1 X95.824 Y87.45 E.29103
G1 X95.824 Y88.023 E.01546
G1 X104.023 Y79.824 E.31289
G1 X104.597 Y79.824 E.01549
G1 X95.824 Y88.597 E.3348
G1 X95.824 Y89.171 E.01549
G1 X105.171 Y79.824 E.3567
G1 X105.745 Y79.824 E.01549
G1 X95.824 Y89.745 E.37861
G1 X95.824 Y90.318 E.01546
G1 X106.318 Y79.824 E.40048
G1 X106.892 Y79.824 E.01549
G1 X95.824 Y90.892 E.42238
G1 X95.824 Y91.466 E.01549
G1 X107.466 Y79.824 E.44429
G1 X108.039 Y79.824 E.01546
G1 X95.824 Y92.039 E.46615
G1 X95.824 Y92.613 E.01549
G1 X108.613 Y79.824 E.48806
G1 X109.187 Y79.824 E.01549
G1 X95.824 Y93.187 E.50996
G1 X95.824 Y93.76 E.01546
G1 X109.76 Y79.824 E.53183
G1 X110.334 Y79.824 E.01549
G1 X95.824 Y94.334 E.55373
G1 X95.824 Y94.908 E.01549
G1 X110.908 Y79.824 E.57564
G1 X111.481 Y79.824 E.01546
G1 X95.824 Y95.481 E.59751
G1 X95.824 Y96.055 E.01549
G1 X112.055 Y79.824 E.61941
G1 X112.629 Y79.824 E.01549
G1 X95.824 Y96.629 E.64132
G1 X95.824 Y97.203 E.01549
G1 X113.203 Y79.824 E.66322
G1 X113.776 Y79.824 E.01546
G1 X95.824 Y97.776 E.68509
G1 X95.824 Y98.35 E.01549
