; generated by PrusaSlicer 2.7.4+win64 on 2024-05-26 at 20:56:24 UTC

; 

; external perimeters extrusion width = 0.42mm
; perimeters extrusion width = 0.44mm
; infill extrusion width = 0.44mm
; solid infill extrusion width = 0.44mm
; top infill extrusion width = 0.40mm
; first layer extrusion width = 0.42mm

; external perimeters extrusion width = 0.42mm
; perimeters extrusion width = 0.44mm
; infill extrusion width = 0.44mm
; solid infill extrusion width = 0.44mm
; top infill extrusion width = 0.40mm
; first layer extrusion width = 0.42mm

; external perimeters extrusion width = 0.42mm
; perimeters extrusion width = 0.44mm
; infill extrusion width = 0.44mm
; solid infill extrusion width = 0.44mm
; top infill extrusion width = 0.40mm
; first layer extrusion width = 0.42mm

; external perimeters extrusion width = 0.42mm
; perimeters extrusion width = 0.44mm
; infill extrusion width = 0.44mm
; solid infill extrusion width = 0.44mm
; top infill extrusion width = 0.40mm
; first layer extrusion width = 0.42mm

M201 X500 Y500 Z100 E5000 ; sets maximum accelerations, mm/sec^2
M203 X500 Y500 Z10 E60 ; sets maximum feedrates, mm / sec
M204 S500 T1000 ; sets acceleration (S) and retract acceleration (R), mm/sec^2
M205 X8.00 Y8.00 Z0.40 E5.00 ; sets the jerk limits, mm/sec
M205 S0 T0 ; sets the minimum extruding and travel feed rate, mm/sec

; printing object housing_control_box.stl id:3 copy 0
; stop printing object housing_control_box.stl id:3 copy 0
; printing object housing_power_lid.stl id:2 copy 0
; stop printing object housing_power_lid.stl id:2 copy 0
; printing object housing_control_lid.stl id:0 copy 0
; stop printing object housing_control_lid.stl id:0 copy 0
; printing object housing_power_box.stl id:1 copy 0
; stop printing object housing_power_box.stl id:1 copy 0

;TYPE:Custom
G90 ; use absolute coordinates
M83 ; extruder relative mode
M104 S150 ; set temporary nozzle temp to prevent oozing during homing
M140 S70 ; set final bed temp
G4 S30 ; allow partial nozzle warmup
G28 ; home all axis
G1 Z50 F240
G1 X2.0 Y10 F3000
M104 S240 ; set final nozzle temp
M190 S70 ; wait for bed temp to stabilize
M109 S240 ; wait for nozzle temp to stabilize
G1 Z0.28 F240
G92 E0
G1 X2.0 Y140 E10 F1500 ; prime the nozzle
G1 X2.3 Y140 F5000
G92 E0
G1 X2.3 Y10 E10 F1200 ; prime the nozzle
G92 E0
G21 ; set units to millimeters
G90 ; use absolute coordinates
M83 ; use relative distances for extrusion
; Filament gcode
M107
;LAYER_CHANGE
;Z:0.2
;HEIGHT:0.2
G1 E-5 F3600
G1 Z.2 F9000
G1 X78.044 Y14.26
G1 Z.2
G1 E5 F2400
M204 S500
;TYPE:Skirt/Brim
;WIDTH:0.42
G1 F1200
G1 X78.438 Y12.677 E.05115
G1 X79.529 Y11.463 E.05118
G1 X80.369 Y11.051 E.02934
G1 X108.926 Y1.689 E.94227
G1 X110.299 Y1.402 E.04398
G1 X144.568 Y1.269 E1.07449
G1 X209.568 Y1.269 E2.03803
G1 X211.151 Y1.663 E.05115
G1 X212.365 Y2.753 E.05116
G1 X212.944 Y4.577 E.06
G1 X215.125 Y111.447 E3.35153
G1 X215.125 Y216.016 E3.27869
G1 X214.731 Y217.599 E.05115
G1 X213.641 Y218.813 E.05116
G1 X211.813 Y219.392 E.06012
G1 X182.696 Y219.951 E.91311
G1 X180.759 Y219.386 E.06326
G1 X97.103 Y163.691 E3.15111
G1 X95.799 Y162.027 E.06629
G1 X78.245 Y113.407 E1.62076
G1 X78.044 Y112.26 E.03651
G1 X78.044 Y14.32 E3.07084
G1 E-3.5 F3600
;WIPE_START
G1 F7200
G1 X78.044 Y14.26 E-.0285
G1 X78.438 Y12.677 E-.77487
G1 X79.418 Y11.587 E-.69663
;WIPE_END
; printing object housing_control_lid.stl id:0 copy 0
G1 X145.632 Y5.71 F9000
G1 E5 F2400
;TYPE:Perimeter
;WIDTH:0.419999
G1 F1200
G1 X208.504 Y5.71 E1.9713
G1 X208.504 Y37.146 E.98565
G1 X208.504 Y107.582 E2.20847
G1 X145.632 Y107.582 E1.9713
G1 X145.632 Y5.77 E3.19224
G1 X145.632 Y5.77 F9000
G1 X145.255 Y5.333
G1 F1200
G1 X208.881 Y5.333 E1.99495
G1 X208.881 Y37.146 E.99747
G1 X208.881 Y107.959 E2.22029
G1 X145.255 Y107.959 E1.99495
G1 X145.255 Y5.393 E3.21588
G1 X144.878 Y4.956 F9000
;TYPE:External perimeter
G1 F1200
G1 X209.258 Y4.956 E2.01859
G1 X209.258 Y37.146 E1.00929
G1 X209.258 Y108.336 E2.23211
G1 X144.878 Y108.336 E2.01859
G1 X144.878 Y5.016 E3.23952
G1 E-3.5 F3600
;WIPE_START
G1 F7200
G1 X144.878 Y4.956 E-.0285
G1 X147.976 Y4.956 E-1.4715
;WIPE_END
G1 X208.383 Y6.593 F9000
G1 E5 F2400
;TYPE:Solid infill
;WIDTH:0.420203
G1 F1200
G1 X207.79 Y6 E.02631
G1 X207.257 Y6 E.01672
G1 X208.213 Y6.957 E.04244
G1 X208.213 Y7.491 E.01675
G1 X206.723 Y6 E.06613
G1 X206.189 Y6 E.01675
G1 X208.213 Y8.024 E.0898
G1 X208.213 Y8.558 E.01675
G1 X205.656 Y6 E.11347
G1 X205.122 Y6 E.01675
G1 X208.213 Y9.092 E.13716
G1 X208.213 Y9.625 E.01672
G1 X204.589 Y6 E.1608
G1 X204.055 Y6 E.01675
G1 X208.213 Y10.159 E.18449
G1 X208.213 Y10.692 E.01672
G1 X203.522 Y6 E.20814
G1 X202.988 Y6 E.01675
G1 X208.213 Y11.226 E.23183
G1 X208.213 Y11.759 E.01672
G1 X202.455 Y6 E.25548
G1 X201.921 Y6 E.01675
G1 X208.213 Y12.293 E.27917
G1 X208.213 Y12.826 E.01672
G1 X201.387 Y6 E.30284
G1 X200.854 Y6 E.01672
G1 X208.213 Y13.36 E.32651
G1 X208.213 Y13.894 E.01675
G1 X200.32 Y6 E.3502
G1 X199.787 Y6 E.01672
G1 X208.213 Y14.427 E.37385
G1 X208.213 Y14.961 E.01675
G1 X199.253 Y6 E.39754
G1 X198.72 Y6 E.01672
G1 X208.213 Y15.494 E.42118
G1 X208.213 Y16.028 E.01675
G1 X198.186 Y6 E.44488
G1 X197.653 Y6 E.01672
G1 X208.213 Y16.561 E.46852
G1 X208.213 Y17.095 E.01675
G1 X197.119 Y6 E.49221
G1 X196.585 Y6 E.01675
G1 X208.213 Y17.628 E.51588
G1 X208.213 Y18.162 E.01675
G1 X196.052 Y6 E.53955
G1 X195.518 Y6 E.01675
G1 X208.213 Y18.696 E.56324
G1 X208.213 Y19.229 E.01672
G1 X194.985 Y6 E.58689
G1 X194.451 Y6 E.01675
G1 X208.213 Y19.763 E.61058
G1 X208.213 Y20.296 E.01672
G1 X193.918 Y6 E.63423
G1 X193.384 Y6 E.01675
G1 X208.213 Y20.83 E.65792
G1 X208.213 Y21.363 E.01672
G1 X192.85 Y6 E.68159
G1 X192.317 Y6 E.01672
G1 X208.213 Y21.897 E.70526
G1 X208.213 Y22.43 E.01672
G1 X191.783 Y6 E.72893
G1 X191.25 Y6 E.01672
G1 X208.213 Y22.964 E.7526
G1 X208.213 Y23.498 E.01675
G1 X190.716 Y6 E.77629
G1 X190.183 Y6 E.01672
G1 X208.213 Y24.031 E.79993
G1 X208.213 Y24.565 E.01675
G1 X189.649 Y6 E.82363
G1 X189.116 Y6 E.01672
G1 X208.213 Y25.098 E.84727
G1 X208.213 Y25.632 E.01675
G1 X188.582 Y6 E.87096
G1 X188.048 Y6 E.01675
G1 X208.213 Y26.165 E.89463
G1 X208.213 Y26.699 E.01675
G1 X187.515 Y6 E.9183
G1 X186.981 Y6 E.01675
G1 X208.213 Y27.233 E.94199
G1 X208.213 Y27.766 E.01672
G1 X186.448 Y6 E.96564
G1 X185.914 Y6 E.01675
G1 X208.213 Y28.3 E.98933
G1 X208.213 Y28.833 E.01672
G1 X185.381 Y6 E1.01298
G1 X184.847 Y6 E.01675
G1 X208.213 Y29.367 E1.03667
G1 X208.213 Y29.9 E.01672
G1 X184.314 Y6 E1.06032
G1 X183.78 Y6 E.01675
G1 X208.213 Y30.434 E1.08401
G1 X208.213 Y30.967 E.01672
G1 X183.246 Y6 E1.10768
G1 X182.713 Y6 E.01672
G1 X208.213 Y31.501 E1.13134
G1 X208.213 Y32.035 E.01675
G1 X182.179 Y6 E1.15504
G1 X181.646 Y6 E.01672
G1 X208.213 Y32.568 E1.17868
G1 X208.213 Y33.102 E.01675
G1 X181.112 Y6 E1.20237
G1 X180.579 Y6 E.01672
G1 X208.213 Y33.635 E1.22602
G1 X208.213 Y34.169 E.01675
G1 X180.045 Y6 E1.24971
G1 X179.512 Y6 E.01672
G1 X208.213 Y34.702 E1.27336
G1 X208.213 Y35.236 E.01675
G1 X178.978 Y6 E1.29705
G1 X178.444 Y6 E.01675
G1 X208.213 Y35.769 E1.32072
G1 X208.213 Y36.303 E.01675
G1 X177.911 Y6 E1.34439
G1 X177.377 Y6 E.01675
G1 X208.213 Y36.837 E1.36808
G1 X208.213 Y37.37 E.01672
G1 X176.844 Y6 E1.39173
G1 X176.31 Y6 E.01675
G1 X208.213 Y37.904 E1.41542
G1 X208.213 Y38.437 E.01672
G1 X175.777 Y6 E1.43906
G1 X175.243 Y6 E.01675
G1 X208.213 Y38.971 E1.46276
G1 X208.213 Y39.504 E.01672
G1 X174.709 Y6 E1.48642
G1 X174.176 Y6 E.01672
G1 X208.213 Y40.038 E1.51009
G1 X208.213 Y40.571 E.01672
G1 X173.642 Y6 E1.53376
G1 X173.109 Y6 E.01672
G1 X208.213 Y41.105 E1.55743
G1 X208.213 Y41.639 E.01675
G1 X172.575 Y6 E1.58112
G1 X172.042 Y6 E.01672
G1 X208.213 Y42.172 E1.60477
G1 X208.213 Y42.706 E.01675
G1 X171.508 Y6 E1.62846
G1 X170.975 Y6 E.01672
G1 X208.213 Y43.239 E1.65211
G1 X208.213 Y43.773 E.01675
G1 X170.441 Y6 E1.6758
G1 X169.907 Y6 E.01675
G1 X208.213 Y44.306 E1.69947
G1 X208.213 Y44.84 E.01675
G1 X169.374 Y6 E1.72314
G1 X168.84 Y6 E.01675
G1 X208.213 Y45.374 E1.74683
G1 X208.213 Y45.907 E.01672
G1 X168.307 Y6 E1.77048
G1 X167.773 Y6 E.01675
G1 X208.213 Y46.441 E1.79417
G1 X208.213 Y46.974 E.01672
G1 X167.24 Y6 E1.81781
G1 X166.706 Y6 E.01675
G1 X208.213 Y47.508 E1.8415
G1 X208.213 Y48.041 E.01672
G1 X166.173 Y6 E1.86515
G1 X165.639 Y6 E.01675
G1 X208.213 Y48.575 E1.88884
G1 X208.213 Y49.108 E.01672
G1 X165.105 Y6 E1.91251
G1 X164.572 Y6 E.01672
G1 X208.213 Y49.642 E1.93618
G1 X208.213 Y50.176 E.01675
G1 X164.038 Y6 E1.95987
G1 X163.505 Y6 E.01672
G1 X208.213 Y50.709 E1.98352
G1 X208.213 Y51.243 E.01675
G1 X162.971 Y6 E2.00721
G1 X162.438 Y6 E.01672
G1 X208.213 Y51.776 E2.03086
G1 X208.213 Y52.31 E.01675
G1 X161.904 Y6 E2.05455
G1 X161.371 Y6 E.01672
G1 X208.213 Y52.843 E2.0782
G1 X208.213 Y53.377 E.01675
G1 X160.837 Y6 E2.10189
G1 X160.303 Y6 E.01675
G1 X208.213 Y53.91 E2.12556
G1 X208.213 Y54.444 E.01675
G1 X159.77 Y6 E2.14922
G1 X159.236 Y6 E.01675
G1 X208.213 Y54.978 E2.17292
G1 X208.213 Y55.511 E.01672
G1 X158.703 Y6 E2.19656
G1 X158.169 Y6 E.01675
G1 X208.213 Y56.045 E2.22025
G1 X208.213 Y56.578 E.01672
G1 X157.636 Y6 E2.2439
G1 X157.102 Y6 E.01675
G1 X208.213 Y57.112 E2.26759
G1 X208.213 Y57.645 E.01672
G1 X156.568 Y6 E2.29126
G1 X156.035 Y6 E.01672
G1 X208.213 Y58.179 E2.31493
G1 X208.213 Y58.712 E.01672
G1 X155.501 Y6 E2.3386
G1 X154.968 Y6 E.01672
G1 X208.213 Y59.246 E2.36227
G1 X208.213 Y59.78 E.01675
G1 X154.434 Y6 E2.38596
G1 X153.901 Y6 E.01672
G1 X208.213 Y60.313 E2.40961
G1 X208.213 Y60.847 E.01675
G1 X153.367 Y6 E2.4333
G1 X152.834 Y6 E.01672
G1 X208.213 Y61.38 E2.45694
G1 X208.213 Y61.914 E.01675
G1 X152.3 Y6 E2.48064
G1 X151.766 Y6 E.01675
G1 X208.213 Y62.447 E2.5043
G1 X208.213 Y62.981 E.01675
G1 X151.233 Y6 E2.52797
G1 X150.699 Y6 E.01675
G1 X208.213 Y63.515 E2.55166
G1 X208.213 Y64.048 E.01672
G1 X150.166 Y6 E2.57531
G1 X149.632 Y6 E.01675
G1 X208.213 Y64.582 E2.599
G1 X208.213 Y65.115 E.01672
G1 X149.099 Y6 E2.62265
G1 X148.565 Y6 E.01675
G1 X208.213 Y65.649 E2.64634
G1 X208.213 Y66.182 E.01672
G1 X148.032 Y6 E2.66999
G1 X147.498 Y6 E.01675
G1 X208.213 Y66.716 E2.69368
G1 X208.213 Y67.249 E.01672
G1 X146.964 Y6 E2.71735
G1 X146.431 Y6 E.01672
G1 X208.213 Y67.783 E2.74102
G1 X208.213 Y68.317 E.01675
G1 X145.922 Y6.026 E2.76358
G1 X145.922 Y6.559 E.01672
G1 X208.213 Y68.85 E2.76358
G1 X208.213 Y69.384 E.01675
G1 X145.922 Y7.093 E2.76358
G1 X145.922 Y7.626 E.01672
G1 X208.213 Y69.917 E2.76358
G1 X208.213 Y70.451 E.01675
G1 X145.922 Y8.16 E2.76358
G1 X145.922 Y8.693 E.01672
G1 X208.213 Y70.984 E2.76358
G1 X208.213 Y71.518 E.01675
G1 X145.922 Y9.227 E2.76358
G1 X145.922 Y9.76 E.01672
G1 X208.213 Y72.051 E2.76358
G1 X208.213 Y72.585 E.01675
G1 X145.922 Y10.294 E2.76358
G1 X145.922 Y10.828 E.01675
G1 X208.213 Y73.119 E2.76358
G1 X208.213 Y73.652 E.01672
G1 X145.922 Y11.361 E2.76358
G1 X145.922 Y11.895 E.01675
G1 X208.213 Y74.186 E2.76358
G1 X208.213 Y74.719 E.01672
G1 X145.922 Y12.428 E2.76358
G1 X145.922 Y12.962 E.01675
G1 X208.213 Y75.253 E2.76358
G1 X208.213 Y75.786 E.01672
G1 X145.922 Y13.495 E2.76358
G1 X145.922 Y14.029 E.01675
G1 X208.213 Y76.32 E2.76358
G1 X208.213 Y76.853 E.01672
G1 X145.922 Y14.563 E2.76355
G1 X145.922 Y15.096 E.01672
G1 X208.213 Y77.387 E2.76358
G1 X208.213 Y77.921 E.01675
G1 X145.922 Y15.63 E2.76358
G1 X145.922 Y16.163 E.01672
G1 X208.213 Y78.454 E2.76358
G1 X208.213 Y78.988 E.01675
G1 X145.922 Y16.697 E2.76358
G1 X145.922 Y17.23 E.01672
G1 X208.213 Y79.521 E2.76358
G1 X208.213 Y80.055 E.01675
G1 X145.922 Y17.764 E2.76358
G1 X145.922 Y18.297 E.01672
G1 X208.213 Y80.588 E2.76358
G1 X208.213 Y81.122 E.01675
G1 X145.922 Y18.831 E2.76358
G1 X145.922 Y19.365 E.01675
G1 X208.213 Y81.656 E2.76358
G1 X208.213 Y82.189 E.01672
G1 X145.922 Y19.898 E2.76358
G1 X145.922 Y20.432 E.01675
G1 X208.213 Y82.723 E2.76358
G1 X208.213 Y83.256 E.01672
G1 X145.922 Y20.965 E2.76358
G1 X145.922 Y21.499 E.01675
G1 X208.213 Y83.79 E2.76358
G1 X208.213 Y84.323 E.01672
G1 X145.922 Y22.032 E2.76358
G1 X145.922 Y22.566 E.01675
G1 X208.213 Y84.857 E2.76358
G1 X208.213 Y85.39 E.01672
G1 X145.922 Y23.099 E2.76358
G1 X145.922 Y23.633 E.01675
G1 X208.213 Y85.924 E2.76358
G1 X208.213 Y86.458 E.01675
G1 X145.922 Y24.167 E2.76358
G1 X145.922 Y24.7 E.01672
G1 X208.213 Y86.991 E2.76358
G1 X208.213 Y87.525 E.01675
G1 X145.922 Y25.234 E2.76358
G1 X145.922 Y25.767 E.01672
G1 X208.213 Y88.058 E2.76358
G1 X208.213 Y88.592 E.01675
G1 X145.922 Y26.301 E2.76358
G1 X145.922 Y26.834 E.01672
G1 X208.213 Y89.125 E2.76358
G1 X208.213 Y89.659 E.01675
G1 X145.922 Y27.368 E2.76358
G1 X145.922 Y27.901 E.01672
G1 X208.213 Y90.192 E2.76358
G1 X208.213 Y90.726 E.01675
G1 X145.922 Y28.435 E2.76358
G1 X145.922 Y28.969 E.01675
G1 X208.213 Y91.26 E2.76358
G1 X208.213 Y91.793 E.01672
G1 X145.922 Y29.502 E2.76358
G1 X145.922 Y30.036 E.01675
G1 X208.213 Y92.327 E2.76358
G1 X208.213 Y92.86 E.01672
G1 X145.922 Y30.569 E2.76358
G1 X145.922 Y31.103 E.01675
G1 X208.213 Y93.394 E2.76358
G1 X208.213 Y93.927 E.01672
G1 X145.922 Y31.636 E2.76358
G1 X145.922 Y32.17 E.01675
G1 X208.213 Y94.461 E2.76358
G1 X208.213 Y94.994 E.01672
G1 X145.922 Y32.704 E2.76355
G1 X145.922 Y33.237 E.01672
G1 X208.213 Y95.528 E2.76358
G1 X208.213 Y96.062 E.01675
G1 X145.922 Y33.771 E2.76358
G1 X145.922 Y34.304 E.01672
G1 X208.213 Y96.595 E2.76358
G1 X208.213 Y97.129 E.01675
G1 X145.922 Y34.838 E2.76358
G1 X145.922 Y35.371 E.01672
G1 X208.213 Y97.662 E2.76358
G1 X208.213 Y98.196 E.01675
G1 X145.922 Y35.905 E2.76358
G1 X145.922 Y36.438 E.01672
G1 X208.213 Y98.729 E2.76358
G1 X208.213 Y99.263 E.01675
G1 X145.922 Y36.972 E2.76358
G1 X145.922 Y37.506 E.01675
G1 X208.213 Y99.797 E2.76358
G1 X208.213 Y100.33 E.01672
G1 X145.922 Y38.039 E2.76358
G1 X145.922 Y38.573 E.01675
G1 X208.213 Y100.864 E2.76358
G1 X208.213 Y101.397 E.01672
G1 X145.922 Y39.106 E2.76358
G1 X145.922 Y39.64 E.01675
G1 X208.213 Y101.931 E2.76358
G1 X208.213 Y102.464 E.01672
G1 X145.922 Y40.173 E2.76358
G1 X145.922 Y40.707 E.01675
G1 X208.213 Y102.998 E2.76358
G1 X208.213 Y103.531 E.01672
G1 X145.922 Y41.24 E2.76358
G1 X145.922 Y41.774 E.01675
G1 X208.213 Y104.065 E2.76358
G1 X208.213 Y104.599 E.01675
G1 X145.922 Y42.308 E2.76358
G1 X145.922 Y42.841 E.01672
G1 X208.213 Y105.132 E2.76358
G1 X208.213 Y105.666 E.01675
G1 X145.922 Y43.375 E2.76358
G1 X145.922 Y43.908 E.01672
G1 X208.213 Y106.199 E2.76358
G1 X208.213 Y106.733 E.01675
G1 X145.922 Y44.442 E2.76358
G1 X145.922 Y44.975 E.01672
G1 X208.213 Y107.266 E2.76358
G1 X208.213 Y107.291 E.00078
G1 X207.705 Y107.291 E.01594
G1 X145.922 Y45.509 E2.74102
G1 X145.922 Y46.042 E.01672
G1 X207.171 Y107.291 E2.71735
G1 X206.638 Y107.291 E.01672
G1 X145.922 Y46.576 E2.69368
G1 X145.922 Y47.11 E.01675
G1 X206.104 Y107.291 E2.66999
G1 X205.571 Y107.291 E.01672
G1 X145.922 Y47.643 E2.64634
G1 X145.922 Y48.177 E.01675
G1 X205.037 Y107.291 E2.62265
G1 X204.504 Y107.291 E.01672
G1 X145.922 Y48.71 E2.599
G1 X145.922 Y49.244 E.01675
G1 X203.97 Y107.291 E2.57531
G1 X203.436 Y107.291 E.01675
G1 X145.922 Y49.777 E2.55164
G1 X145.922 Y50.311 E.01675
G1 X202.903 Y107.291 E2.52797
G1 X202.369 Y107.291 E.01675
G1 X145.922 Y50.844 E2.5043
G1 X145.922 Y51.378 E.01675
G1 X201.836 Y107.291 E2.48064
G1 X201.302 Y107.291 E.01675
G1 X145.922 Y51.912 E2.45694
G1 X145.922 Y52.445 E.01672
G1 X200.769 Y107.291 E2.4333
G1 X200.235 Y107.291 E.01675
G1 X145.922 Y52.979 E2.40961
G1 X145.922 Y53.512 E.01672
G1 X199.702 Y107.291 E2.38596
G1 X199.168 Y107.291 E.01675
G1 X145.922 Y54.046 E2.36227
G1 X145.922 Y54.579 E.01672
G1 X198.634 Y107.291 E2.3386
G1 X198.101 Y107.291 E.01672
G1 X145.922 Y55.113 E2.31493
G1 X145.922 Y55.647 E.01675
G1 X197.567 Y107.291 E2.29124
G1 X197.034 Y107.291 E.01672
G1 X145.922 Y56.18 E2.26759
G1 X145.922 Y56.714 E.01675
G1 X196.5 Y107.291 E2.2439
G1 X195.967 Y107.291 E.01672
G1 X145.922 Y57.247 E2.22025
G1 X145.922 Y57.781 E.01675
G1 X195.433 Y107.291 E2.19656
G1 X194.9 Y107.291 E.01672
G1 X145.922 Y58.314 E2.17292
G1 X145.922 Y58.848 E.01675
G1 X194.366 Y107.291 E2.14922
G1 X193.832 Y107.291 E.01675
G1 X145.922 Y59.381 E2.12556
G1 X145.922 Y59.915 E.01675
G1 X193.299 Y107.291 E2.10189
G1 X192.765 Y107.291 E.01675
